!!!!SEGMENT: pl-cz--iii-594--002_rzepko-adolf--missa-gloria.krn
!!!cenid: 18xx:1040
!!!COM: Rzepko, Adolf
!!!COM-rismID: pe30020315
!!!CDT: 1825-1892
!!!CNT: Polish
!!!OPR: Missa
!!!OTL: Gloria
!!!OMV: 002
!!!PDT:
!!!AGN: Sacred; Mass
!!!SMS-siglum: PL-CZ
!!!SMS-shelfmark: III-594
!!!SMS-shelfwork: 001-002 M
!!!SMS-variant: Clarino 1mo in C PL-CZ III-594: 0013-0014; Clarino II in C. PL-CZ III-594: 0015-0016
!!!SMS-altvar: Klarino Imo in C.: PL-CZ III-594: 0017-0018; Clarino II in C PL-CZ III-594: 0019-0020
!!!NIFC-rismSourceID: 300001136
!!!NIFC-rismChildID: 300001136
!!!NIFC-islandoraID:
!!!URL-pdf-islandora:
!!!URL-scan:
!!!ONB-nifc: UWAGA: części Mszy: Kyrie, Gloria, Credo, Sanctus, Benedictus, Agnus
!!!AIN: 1 clars 1 flt 1 organ 1 soprn 2 tromp 3 violn
!!!key: C
**kern	**fba	**dynam	**kern	**dynam	**kern	**dynam	**kern	**dynam	**kern	**text	**dynam	**kern	**dynam	**kern	**dynam	**kern	**dynam	**kern	**dynam
*part9	*	*part9	*part8	*part8	*part7	*part7	*part6	*part6	*part5	*part5	*part5	*part4	*part4	*part3	*part3	*part2	*part2	*part1	*part1
*group5	*	*	*group4	*	*group4	*	*group4	*	*group3	*group3	*	*group2	*	*group2	*	*group1	*	*group1	*
*staff9	*	*	*staff8	*	*staff7	*	*staff6	*	*staff5	*staff5	*	*staff4	*	*staff3	*	*staff2	*	*staff1	*
*I"Organo	*	*	*I"Violino in F	*	*I"Violino 2do	*	*I"Violino 1o	*	*I"Sopran.	*	*	*I"Clarino II in C.	*	*I"Clarino 1mo in C	*	*I"Clarinetto in C.	*	*I"Flauto	*
*I'org	*	*	*I'vl in F	*	*I'vl 2	*	*I'vl 1	*	*I'S	*	*	*I'clno 2 in C	*	*I'clno 1 in C	*	*I'cl in C	*	*I'fl	*
*Iorgan	*	*	*Ivioln	*	*Ivioln	*	*Ivioln	*	*Isoprn	*	*	*Itromp	*	*Itromp	*	*Iclars	*	*Iflt	*
*ICklav	*	*	*ICstr	*	*ICstr	*	*ICstr	*	*ICvox	*	*	*ICbras	*	*ICbras	*	*ICww	*	*ICww	*
*clefF4	*	*	*clefG2	*	*clefG2	*	*clefG2	*	*clefC1	*	*	*clefG2	*	*clefG2	*	*clefG2	*	*clefG2	*
*	*	*	*ITrd-3c-5	*	*	*	*	*	*	*	*	*	*	*	*	*	*	*	*
*k[]	*	*	*k[]	*	*k[]	*	*k[]	*	*k[]	*	*	*k[]	*	*k[]	*	*k[]	*	*k[]	*
*C:	*	*	*C:	*	*C:	*	*C:	*	*C:	*	*	*C:	*	*C:	*	*C:	*	*C:	*
*M4/4	*	*	*M4/4	*	*M4/4	*	*M4/4	*	*M4/4	*	*	*M4/4	*	*M4/4	*	*M4/4	*	*M4/4	*
*met(c)	*	*	*met(c)	*	*met(c)	*	*met(c)	*	*met(c)	*	*	*met(c)	*	*met(c)	*	*met(c)	*	*met(c)	*
=1	=1	=1	=1	=1	=1	=1	=1	=1	=1	=1	=1	=1	=1	=1	=1	=1	=1	=1	=1
*	*	*	*tremolo	*	*tremolo	*	*tremolo	*	*	*	*	*	*	*	*	*	*	*	*
!!LO:TX:t=P:problem:4,8,16\middle or right:global
!!LO:TX:t=P:problem:wszystkie custos użyte jako łamanie pięciolinii
!LO:TX:a:B:t=Allegro non tanto	!	!	!	!	!	!	!	!	!	!	!	!	!	!	!	!	!	!	!
!LO:TX:a:t=unisono	!	!LO:DY:b:rj	!LO:TX:a:B:t=Allegro non tanto	!LO:DY:b:rj	!LO:TX:a:B:t=Allegro nontanto	!	!LO:TX:a:B:t=Allegro non tanto	!LO:DY:b:rj	!LO:TX:a:B:t=Allegro non tanto	!	!LO:DY:a	!LO:TX:a:B:t=Allegro non tanto	!LO:DY:b:rj	!LO:TX:a:B:t=Allegro non tanto	!LO:DY:b:rj	!LO:TX:a:B:t=Allegro non tanto	!LO:DY:b:rj	!LO:TX:a:B:t=Allegro non tropo	!LO:DY:b:rj
8C/L	.	f	16cc/LL	f	16cc\LL	.	16cc\LL	f	(8cc\L	Glo-	f	4c/	f	4c/	f	8cc\L	f	8ccc\L	f
.	.	.	16cc/	.	16cc\	.	16cc\	.	.	.	.	.	.	.	.	.	.	.	.
8BB/	.	.	16b/	.	16b\	.	16b\	.	8b\J)	.	.	.	.	.	.	8b\	.	8bb\	.
.	.	.	16b/	.	16b\	.	16b\	.	.	.	.	.	.	.	.	.	.	.	.
8C/	.	.	16cc/	.	16cc\	.	16cc\	.	8cc\	-ri-	.	4r	.	4r	.	8cc\	.	8ccc\	.
.	.	.	16cc/	.	16cc\	.	16cc\	.	.	.	.	.	.	.	.	.	.	.	.
!LO:SIC:v:s=8E/J	!	!	!	!	!	!	!	!	!	!	!	!	!	!	!	!LO:SIC:v:s=8ee\J	!	!	!
8D/J	.	.	16ee/	.	16ee\	.	16ee\	.	8ee\	-a	.	.	.	.	.	8dd\J	.	8eee\J	.
.	.	.	16ee/JJ	.	16ee\JJ	.	16ee\JJ	.	.	.	.	.	.	.	.	.	.	.	.
*	*	*	*	*	*	*	*	*	*	*	*	*	*	*	*	*	*	*custos:ff	*
!	!	!	!	!	!	!	!	!	!	!	!	!	!	!	!	!	!	!LO:LB:g=original	!
8D/L	.	.	16dd/LL	.	16dd\LL	.	16dd\LL	.	(8dd\L	in	.	8c/	.	8c/	.	8dd\L	.	8ddd\L	.
.	.	.	16dd/	.	16dd\	.	16dd\	.	.	.	.	.	.	.	.	.	.	.	.
8C/	.	.	16cc/	.	16cc\	.	16cc\	.	8cc\J)	.	.	8r	.	8r	.	8cc\	.	8ccc\	.
.	.	.	16cc/	.	16cc\	.	16cc\	.	.	.	.	.	.	.	.	.	.	.	.
8BB/	.	.	16b/	.	16b\	.	16b\	.	(8b\L	ex-	.	8c/	.	8c/	.	8b\	.	8bb\	.
.	.	.	16b/	.	16b\	.	16b\	.	.	.	.	.	.	.	.	.	.	.	.
8C/J	.	.	16cc/	.	16cc\	.	16cc\	.	8cc\J)	.	.	8r	.	8r	.	8cc\J	.	8ccc\J	.
.	.	.	16cc/JJ	.	16cc\JJ	.	16cc\JJ	.	.	.	.	.	.	.	.	.	.	.	.
!	!	!	!	!	!LO:LB:g=original	!	!	!	!	!	!	!	!	!	!	!	!	!	!
=2	=2	=2	=2	=2	=2	=2	=2	=2	=2	=2	=2	=2	=2	=2	=2	=2	=2	=2	=2
*2\right	*	*	*	*	*	*	*2\right	*	*2\right	*	*	*	*	*	*	*	*	*2\right	*
2F\	6_ 5_ 3-_	.	16cc/LL	.	16dd 16f/LL	.	16aa-X 16cc\LL	.	2aa-X\	-cel-	.	2.c/	.	2.c/	.	2a-X/	.	2aaa-X\	.
.	.	.	16cc/	.	16dd 16f/	.	16aa-X 16cc\	.	.	.	.	.	.	.	.	.	.	.	.
.	.	.	16cc/	.	16dd 16f/	.	16aa-X 16cc\	.	.	.	.	.	.	.	.	.	.	.	.
.	.	.	16cc/	.	16dd 16f/	.	16aa-X 16cc\	.	.	.	.	.	.	.	.	.	.	.	.
.	.	.	16cc/	.	16dd 16f/	.	16aa-X 16cc\	.	.	.	.	.	.	.	.	.	.	.	.
.	.	.	16cc/	.	16dd 16f/	.	16aa-X 16cc\	.	.	.	.	.	.	.	.	.	.	.	.
.	.	.	16cc/	.	16dd 16f/	.	16aa-X 16cc\	.	.	.	.	.	.	.	.	.	.	.	.
.	.	.	16cc/JJ	.	16dd 16f/JJ	.	16aa-X 16cc\JJ	.	.	.	.	.	.	.	.	.	.	.	.
*	*	*	*Xtremolo	*	*Xtremolo	*	*Xtremolo	*	*	*	*	*	*	*	*	*	*	*	*
!	!	!	!	!	!	!	!	!	!LO:SIC:v:s=4a-\	!	!	!	!	!	!	!	!	!	!
4F\	.	.	4cc/	.	4dd 4f/	.	4aa- 4cc\	.	4a\	-sis	.	.	.	.	.	4a-/	.	4aa-X\	.
4r	x x x	.	4r	.	4r	.	4r	.	4r	.	.	4r	.	4r	.	4r	.	4r	.
=3	=3	=3	=3	=3	=3	=3	=3	=3	=3	=3	=3	=3	=3	=3	=3	=3	=3	=3	=3
4G 4GG/	x x 8	.	4r	.	4r	.	2.gg\	.	4r	.	.	1G	.	1g	.	4r	.	2.ggg\	.
4G 4GG/	x 8 3	.	4g/	.	4g 4B/	.	.	.	(4b\	in	.	.	.	.	.	4g/	.	.	.
4G 4GG/	x 8 4	.	4a/	.	4g 4c/	.	.	.	4cc\)	.	.	.	.	.	.	4a/	.	.	.
4G 4GG/	x 8 5	.	4b/	.	4g 4d/	.	4ff\	.	4dd\	ex-	.	.	.	.	.	4b/	.	4fff\	.
!	!	!	!	!	!	!	!	!	!	!	!	!	!	!	!	!LO:LB:g=original	!	!	!
=4	=4	=4	=4	=4	=4	=4	=4	=4	=4	=4	=4	=4	=4	=4	=4	=4	=4	=4	=4
4C/	x 5 3	.	8ee 8cc/	.	8g 8G/	.	8eeL 8cc'\	.	(4ee\	-cel-	.	8c/	.	8e/	.	8cc\	.	8eee'\L	.
.	.	.	8r	.	8r	.	(16aa\L	.	.	.	.	8r	.	8r	.	8r	.	(16aaa\L	.
.	.	.	.	.	.	.	16gg\JJ)	.	.	.	.	.	.	.	.	.	.	16ggg\JJ)	.
4GG/	x x 7	.	8dd 8b/	.	8f 8G/	.	8dd'\L	.	4dd\)	.	.	8G/	.	8g/	.	8b\	.	8ddd'\L	.
.	.	.	8r	.	8r	.	(16ff\L	.	.	.	.	8r	.	8r	.	8r	.	(16fff\L	.
.	.	.	.	.	.	.	16ee\JJ)	.	.	.	.	.	.	.	.	.	.	16eee\JJ)	.
16C\LL	x 5 3	.	16cc/LL	.	16eLL 16G/	.	16cc\LL	.	4cc\	-sis	.	8c/	.	8e/	.	16cc'/LL	.	16ccc'\LL	.
16G\	.	.	16g/	.	16g/	.	16g\	.	.	.	.	.	.	.	.	16g'/	.	16gg'\	.
!LO:TX:a:t=tasto Solo	!	!	!	!	!	!	!	!	!	!	!	!	!	!	!	!	!	!	!
16F#X\	.	.	16f#X/	.	16f#X/	.	16f#X\	.	.	.	.	8r	.	8r	.	16f#X'/	.	16ff#X'\	.
16G\JJ	.	.	16g/JJ	.	16g/JJ	.	16g\JJ	.	.	.	.	.	.	.	.	16g'/JJ	.	16gg'\JJ	.
16AA/LL	.	.	16a/LL	.	16a/LL	.	16a\LL	.	4r	.	.	4r	.	4r	.	16a'\LL	.	16aa'\LL	.
16BB/	.	.	16b/	.	16b/	.	16b\	.	.	.	.	.	.	.	.	16b'\	.	16bb'\	.
16C/	.	.	16cc/	.	16cc/	.	16cc\	.	.	.	.	.	.	.	.	16cc'\	.	16ccc'\	.
16D/JJ	.	.	16dd/JJ	.	16dd/JJ	.	16dd\JJ	.	.	.	.	.	.	.	.	16dd'\JJ	.	16ddd'\JJ	.
!	!	!	!	!	!	!	!LO:LB:g=original	!	!LO:LB:g=original	!	!	!	!	!	!	!	!	!	!
=5	=5	=5	=5	=5	=5	=5	=5	=5	=5	=5	=5	=5	=5	=5	=5	=5	=5	=5	=5
*	*	*	*tremolo	*	*	*	*tremolo	*	*	*	*	*	*	*	*	*	*	*	*
!LO:TX:a:t=uniso&colon;	!	!	!	!	!LO:TX:t=P:problem=mixed beam	!	!	!	!	!	!	!	!	!	!	!	!	!	!
8E/L	.	.	16ee/LL	.	16ee\LL	.	16ee\LL	.	4.ee\	in	.	2c/	.	2c/	.	8ee\L	.	8eee\L	.
.	.	.	16ee/	.	16ee\	.	16ee\	.	.	.	.	.	.	.	.	.	.	.	.
8GG/	.	.	16g/	.	16G/	.	16g\	.	.	.	.	.	.	.	.	8g\	.	8gg\	.
.	.	.	16g/	.	16G/JJ	.	16g\	.	.	.	.	.	.	.	.	.	.	.	.
*	*	*	*	*	*tremolo	*	*	*	*	*	*	*	*	*	*	*	*	*	*
8C/	.	.	16cc/	.	16c/LL	.	16cc\	.	.	.	.	.	.	.	.	8cc\	.	8ccc\	.
.	.	.	16cc/	.	16c/	.	16cc\	.	.	.	.	.	.	.	.	.	.	.	.
8E/J	.	.	16ee/	.	16e/	.	16ee\	.	8ee\	ex-	.	.	.	.	.	8ee\J	.	8eee\J	.
.	.	.	16ee/JJ	.	16e/JJ	.	16ee\JJ	.	.	.	.	.	.	.	.	.	.	.	.
8D/L	.	.	16dd/LL	.	16d/LL	.	16dd\LL	.	(8dd\L	-cel-	.	4c/	.	4c/	.	8dd\L	.	8ddd\L	.
.	.	.	16dd/	.	16d/	.	16dd\	.	.	.	.	.	.	.	.	.	.	.	.
8C/	.	.	16cc/	.	16c/	.	16cc\	.	8cc\J)	.	.	.	.	.	.	8cc\	.	8ccc\	.
.	.	.	16cc/	.	16c/	.	16cc\	.	.	.	.	.	.	.	.	.	.	.	.
8BB/	.	.	16b/	.	16B/	.	16b\	.	(8b\L	-sis	.	4c/	.	4c/	.	8b\	.	8bb\	.
.	.	.	16b/	.	16B/	.	16b\	.	.	.	.	.	.	.	.	.	.	.	.
8C/J	.	.	16cc/	.	16c/	.	16cc\	.	8cc\J)	.	.	.	.	.	.	8cc\J	.	8ccc\J	.
.	.	.	16cc/JJ	.	16c/JJ	.	16cc\JJ	.	.	.	.	.	.	.	.	.	.	.	.
=6	=6	=6	=6	=6	=6	=6	=6	=6	=6	=6	=6	=6	=6	=6	=6	=6	=6	=6	=6
*	*	*	*2\right	*	*2\right	*	*	*	*	*	*	*	*	*	*	*	*	*	*
2.D\	x 7 3#	.	16ccc 16dd\LL	.	16ff#X\LL	.	16ccc 16dd\LL	.	2cc\	De-	.	2.c/	.	2.c/	.	2f#X/	.	2ccc\	.
.	.	.	16ccc 16dd\	.	16ff#X\	.	16ccc 16dd\	.	.	.	.	.	.	.	.	.	.	.	.
.	.	.	16ccc 16dd\	.	16ff#X\	.	16ccc 16dd\	.	.	.	.	.	.	.	.	.	.	.	.
.	.	.	16ccc 16dd\	.	16ff#X\	.	16ccc 16dd\	.	.	.	.	.	.	.	.	.	.	.	.
.	.	.	16ccc 16dd\	.	16ff#X\	.	16ccc 16dd\	.	.	.	.	.	.	.	.	.	.	.	.
.	.	.	16ccc 16dd\	.	16ff#X\	.	16ccc 16dd\	.	.	.	.	.	.	.	.	.	.	.	.
.	.	.	16ccc 16dd\	.	16ff#X\	.	16ccc 16dd\	.	.	.	.	.	.	.	.	.	.	.	.
.	.	.	16ccc 16dd\JJ	.	16ff#X\JJ	.	16ccc 16dd\JJ	.	.	.	.	.	.	.	.	.	.	.	.
*	*	*	*Xtremolo	*	*Xtremolo	*	*Xtremolo	*	*	*	*	*	*	*	*	*	*	*	*
.	.	.	4ccc 4dd\	.	4ff#\	.	4ccc 4dd\	.	4cc\	-o	.	.	.	.	.	4f#/	.	4ccc\	.
4r	.	.	4r	.	4r	.	4r	.	4r	.	.	4r	.	4r	.	4r	.	4r	.
=7	=7	=7	=7	=7	=7	=7	=7	=7	=7	=7	=7	=7	=7	=7	=7	=7	=7	=7	=7
*	*	*	*	*	*	*	*tremolo	*	*	*	*	*	*	*	*	*	*	*	*
2G\	x x 3	.	2gg\	.	2b 2d/	.	16bb\LL	.	2b\	et	.	2G/	.	2g/	.	2g/	.	2bb\	.
.	.	.	.	.	.	.	16bb\	.	.	.	.	.	.	.	.	.	.	.	.
.	.	.	.	.	.	.	16dd\	.	.	.	.	.	.	.	.	.	.	.	.
.	.	.	.	.	.	.	16dd\	.	.	.	.	.	.	.	.	.	.	.	.
.	.	.	.	.	.	.	16gg\	.	.	.	.	.	.	.	.	.	.	.	.
.	.	.	.	.	.	.	16gg\	.	.	.	.	.	.	.	.	.	.	.	.
.	.	.	.	.	.	.	16bb\	.	.	.	.	.	.	.	.	.	.	.	.
.	.	.	.	.	.	.	16bb\JJ	.	.	.	.	.	.	.	.	.	.	.	.
2C/	x x 6	.	2cc/	.	2a 2e/	.	16aa\LL	.	(4a\	in	.	2c/	.	2c/	.	4c/	.	4aa\	.
.	.	.	.	.	.	.	16aa\	.	.	.	.	.	.	.	.	.	.	.	.
.	.	.	.	.	.	.	16ee\	.	.	.	.	.	.	.	.	.	.	.	.
.	.	.	.	.	.	.	16ee\	.	.	.	.	.	.	.	.	.	.	.	.
.	.	.	.	.	.	.	16ccc\	.	8cc\L	.	.	.	.	.	.	8e/L	.	8ccc\L	.
.	.	.	.	.	.	.	16ccc\	.	.	.	.	.	.	.	.	.	.	.	.
.	.	.	.	.	.	.	16aa\	.	8a\J)	.	.	.	.	.	.	8c/J	.	8aa\J	.
.	.	.	.	.	.	.	16aa\JJ	.	.	.	.	.	.	.	.	.	.	.	.
*	*	*	*	*	*	*	*Xtremolo	*	*	*	*	*	*	*	*	*	*	*	*
!	!	!	!	!	!	!	!	!	!	!	!	!LO:LB:g=original	!	!	!	!	!	!	!
=8	=8	=8	=8	=8	=8	=8	=8	=8	=8	=8	=8	=8	=8	=8	=8	=8	=8	=8	=8
!	!	!	!	!	!	!	!	!	!	!	!	!LO:TX:a:t=1.	!	!LO:TX:a:t=1	!	!	!	!	!
2D\	x 6 4	.	2gg 2b/	.	8dd\L	.	8ddd'\L	.	4dd\	ter-	.	1r	.	1r	.	16d/LL	.	8ddd'\L	.
.	.	.	.	.	.	.	.	.	.	.	.	.	.	.	.	16dd/	.	.	.
.	.	.	.	.	16cc\L	.	16ccc'\L	.	.	.	.	.	.	.	.	16cc/	.	16ccc'\L	.
.	.	.	.	.	16b\JJ	.	16bb'\JJ	.	.	.	.	.	.	.	.	16b/JJ	.	16bb'\JJ	.
.	.	.	.	.	16a/LL	.	16aa'\LL	.	4dd\	-ra	.	.	.	.	.	16a/LL	.	16aa\LL	.
.	.	.	.	.	16g/	.	16gg'\	.	.	.	.	.	.	.	.	16g/	.	16gg\	.
.	.	.	.	.	16f#X/	.	16ff#X'\	.	.	.	.	.	.	.	.	16f#X/	.	16ff#X\	.
.	.	.	.	.	16e/JJ	.	16ee'\JJ	.	.	.	.	.	.	.	.	16e/JJ	.	16ee\JJ	.
!	!	!	!	!	!	!	!	!	!	!	!	!	!	!	!	!LO:TX:t=P:problem=mixed beam	!	!	!
2D\	x 7 3#	.	8dd/L	.	8d/L	.	8dd'\L	.	4dd\	pax	.	.	.	.	.	16d/LL	.	8dd\	.
.	.	.	.	.	.	.	.	.	.	.	.	.	.	.	.	16dd\	.	.	.
.	.	.	16ff#X/L	.	16f#/L	.	16ff#'\L	.	.	.	.	.	.	.	.	16ff#X\	.	8r	.
.	.	.	16ee/JJ	.	16e/JJ	.	16ee'\JJ	.	.	.	.	.	.	.	.	16ee\JJ	.	.	.
.	.	.	16dd/LL	.	16d/LL	.	16dd'\LL	.	4d/	ho-	.	.	.	.	.	16dd\LL	.	4r	.
.	.	.	16cc/	.	16c/	.	16cc'\	.	.	.	.	.	.	.	.	16cc\	.	.	.
.	.	.	16b/	.	16B/	.	16b'\	.	.	.	.	.	.	.	.	16b\	.	.	.
.	.	.	16a/JJ	.	16A/JJ	.	16a'\JJ	.	.	.	.	.	.	.	.	16a\JJ	.	.	.
!	!	!	!	!	!	!	!	!	!	!	!	!	!	!	!	!	!	!LO:LB:g=original	!
=9	=9	=9	=9	=9	=9	=9	=9	=9	=9	=9	=9	=9	=9	=9	=9	=9	=9	=9	=9
8GL 8GG\	x x 3	.	8g/L	.	8G/L	.	8g\L	.	8.g/	-mi-	.	4G/	.	4g/	.	8g\L	.	2r	.
!LO:TX:a:t=unisono	!	!	!	!	!	!	!	!	!	!	!	!	!	!	!	!	!	!	!
8GG\	.	.	8g/	.	8G/J	.	16g\L	.	.	.	.	.	.	.	.	8g\	.	.	.
.	.	.	.	.	.	.	16g\JJ	.	16g/	-ni-	.	.	.	.	.	.	.	.	.
*	*	*	*	*	*	*	*tremolo	*	*	*	*	*	*	*	*	*	*	*	*
8BB\	.	.	8b/	.	8B/L	.	16b\LL	.	4g/	-bus	.	4r	.	4r	.	8b\	.	.	.
.	.	.	.	.	.	.	16b\	.	.	.	.	.	.	.	.	.	.	.	.
8D\J	.	.	8dd/J	.	8d/J	.	16dd\	.	.	.	.	.	.	.	.	8dd\J	.	.	.
.	.	.	.	.	.	.	16dd\JJ	.	.	.	.	.	.	.	.	.	.	.	.
*	*	*	*	*	*	*	*	*	*	*	*	*	*	*	*	*rep	*	*	*
8GL 8GG\	.	.	8g/L	.	8g/L	.	16gg\LL	.	2r	.	.	4G/	.	4g/	.	8g\L	.	8gg\L	.
.	.	.	.	.	.	.	16gg\	.	.	.	.	.	.	.	.	.	.	.	.
8GG\	.	.	8g/	.	8g/J	.	16gg\	.	.	.	.	.	.	.	.	8g\	.	8gg\J	.
.	.	.	.	.	.	.	16gg\JJ	.	.	.	.	.	.	.	.	.	.	.	.
8BB\	.	.	8b/	.	8b\L	.	16bb\LL	.	.	.	.	4r	.	4r	.	8b\	.	8bb\L	.
.	.	.	.	.	.	.	16bb\	.	.	.	.	.	.	.	.	.	.	.	.
8D\J	.	.	8dd/J	.	8dd\J	.	16ddd\	.	.	.	.	.	.	.	.	8dd\J	.	8ddd\J	.
.	.	.	.	.	.	.	16ddd\JJ	.	.	.	.	.	.	.	.	.	.	.	.
*	*	*	*	*	*	*	*Xtremolo	*	*	*	*	*	*	*	*	*Xrep	*	*	*
!	!	!	!	!	!LO:LB:g=original	!	!	!	!	!	!	!	!	!LO:LB:g=original	!	!	!	!	!
=10	=10	=10	=10	=10	=10	=10	=10	=10	=10	=10	=10	=10	=10	=10	=10	=10	=10	=10	=10
!	!	!	!	!	!	!	!	!	!LO:TX:a:t=1	!	!	!	!	!	!	!	!	!	!
4G 4GG\	.	.	4gg 4g/	.	4g/	.	4gg\	.	1r	.	.	4G/	.	4g/	.	4gg 4g\	.	4ggg\	.
4r	.	.	4r	.	4r	.	4r	.	.	.	.	4r	.	4r	.	4r	.	4r	.
2r	.	.	2r	.	2r	.	4r	.	.	.	.	2r	.	2r	.	2r	.	2r	.
!	!	!	!	!	!	!	!LO:TX:a:i:t=dolce	!	!	!	!	!	!	!	!	!	!	!	!
.	.	.	.	.	.	.	8.gg\L	.	.	.	.	.	.	.	.	.	.	.	.
.	.	.	.	.	.	.	16gg\Jk	.	.	.	.	.	.	.	.	.	.	.	.
!	!	!	!LO:LB:g=original	!	!	!	!	!	!	!	!	!	!	!	!	!	!	!	!
=11	=11	=11	=11	=11	=11	=11	=11	=11	=11	=11	=11	=11	=11	=11	=11	=11	=11	=11	=11
!LO:TX:a:t=tasto Solo	!	!	!	!	!	!	!	!	!	!	!	!LO:TX:a:t=6	!	!LO:TX:a:t=6	!	!LO:TX:a:rj:t=Solo	!	!LO:TX:a:t=1	!
2G\	.	.	8r	.	8r	.	4.gg\	.	4.g\	bo-	.	00r	.	00r	.	8r	.	1r	.
*	*	*	*tremolo	*	*tremolo	*	*	*	*	*	*	*	*	*	*	*	*	*	*
!	!	!	!	!	!	!LO:DY:b:rj	!	!	!	!	!	!	!	!	!	!	!	!	!
.	.	.	8b/L	.	8f 8G/L	p	.	.	.	.	.	.	.	.	.	8g\L	.	.	.
.	.	.	8b/	.	8f 8G/	.	.	.	.	.	.	.	.	.	.	8b\	.	.	.
.	.	.	8b/J	.	8f 8G/J	.	8ddd\	.	8dd\	-ne	.	.	.	.	.	8dd\J	.	.	.
2G\	.	.	8r	.	8r	.	8ccc\L	.	(8cc\L	vo-	.	.	.	.	.	4gg\	.	.	.
!	!	!	!LO:TX:t=P:LO:N:vis=4/:problem	!	!LO:TX:t=P:LO:N:n=2:vis=2:problem	!	!	!	!	!	!	!	!	!	!	!	!	!	!
.	.	.	8b/L	.	8f 8G/L	.	8bb\	.	8b\J)	.	.	.	.	.	.	.	.	.	.
.	.	.	8b/	.	8f 8G/	.	8aa\	.	(8a\L	-lun-	.	.	.	.	.	4r	.	.	.
.	.	.	8b/J	.	8f 8G/J	.	8bb\J	.	8b\J)	.	.	.	.	.	.	.	.	.	.
*	*	*	*Xtremolo	*	*	*	*	*	*	*	*	*	*	*	*	*	*	*	*
!LO:LB:g=original	!	!	!	!	!	!	!	!	!	!	!	!	!	!	!	!	!	!	!
=12	=12	=12	=12	=12	=12	=12	=12	=12	=12	=12	=12	=12	=12	=12	=12	=12	=12	=12	=12
!	!	!	!LO:TX:a:rj:t=Solo	!	!	!	!	!	!	!	!	!	!	!	!	!	!	!	!
2C/	.	.	8r	.	8r	.	8ccc\L	.	(4.cc\	-ta-	.	.	.	.	.	8cc\L	.	2r	.
.	.	.	8cc\L	.	8e 8G/L	.	16bb\L	.	.	.	.	.	.	.	.	16b\L	.	.	.
.	.	.	.	.	.	.	16ccc\JJ	.	.	.	.	.	.	.	.	16cc\JJ	.	.	.
*	*	*	*	*	*	*	*custos:gg	*	*	*	*	*	*	*	*	*	*	*	*
!	!	!	!	!	!	!	!LO:LB:g=original	!	!	!	!	!	!	!	!	!	!	!	!
.	.	.	8ee\	.	8e 8G/	.	16bb\LL	.	.	.	.	.	.	.	.	16dd\LL	.	.	.
.	.	.	.	.	.	.	16ccc\	.	.	.	.	.	.	.	.	16cc\	.	.	.
.	.	.	8gg\J	.	8e 8G/J	.	16eee\	.	8ee\)	.	.	.	.	.	.	16ee\	.	.	.
!	!	!	!	!	!	!	!	!	!	!	!	!	!	!	!	!LO:SIC:v:s=16cc\JJ	!	!	!
.	.	.	.	.	.	.	16ccc\JJ	.	.	.	.	.	.	.	.	16dd\JJ	.	.	.
*	*	*	*	*	*rep	*	*	*	*	*	*	*	*	*	*	*	*	*	*
2C/	.	.	4ccc\	.	8r	.	4gg\	.	4g\	-tis	.	.	.	.	.	4g/	.	4r	.
*	*	*	*	*	*	*	*	*	*	*	*	*	*	*	*	*	*	*	*
.	.	.	.	.	8e 8G/L	.	.	.	.	.	.	.	.	.	.	.	.	.	.
.	.	.	4r	.	8e 8G/	.	8.gg\L	.	8r	.	.	.	.	.	.	4r	.	4gg\	.
.	.	.	.	.	8e 8G/J	.	.	.	8g\	lau-	.	.	.	.	.	.	.	.	.
.	.	.	.	.	.	.	16gg\Jk	.	.	.	.	.	.	.	.	.	.	.	.
*	*	*	*	*	*Xrep	*	*	*	*	*	*	*	*	*	*	*	*	*	*
!	!	!	!	!	!	!	!	!	!	!	!	!	!	!	!	!LO:LB:g=original	!	!	!
=13	=13	=13	=13	=13	=13	=13	=13	=13	=13	=13	=13	=13	=13	=13	=13	=13	=13	=13	=13
2G\	.	.	8r	.	8r	.	4ff\	.	4ff\	-da-	.	.	.	.	.	8r	.	4fff\	.
*	*	*	*tremolo	*	*	*	*	*	*	*	*	*	*	*	*	*	*	*	*
.	.	.	8b/L	.	8f 8G/L	.	.	.	.	.	.	.	.	.	.	8g/L	.	.	.
.	.	.	8b/	.	8f 8G/	.	8dd\L	.	8dd\	-mus	.	.	.	.	.	8b/	.	8ddd\L	.
.	.	.	8b/J	.	8f 8G/J	.	8dd\J	.	8dd\	glo-	.	.	.	.	.	8dd/J	.	8ddd\J	.
*	*	*	*Xtremolo	*	*	*	*	*	*	*	*	*	*	*	*	*	*	*	*
!	!	!	!	!	!	!	!	!	!	!	!	!	!	!	!	!LO:N:vis=16	!	!	!
2C/	.	.	8r	.	8r	.	8ff\L	.	8ff\	-ri-	.	.	.	.	.	8dd/L	.	8fff\L	.
!	!	!	!	!	!	!	!	!	!	!	!	!	!	!	!	!LO:N:vis=16	!	!	!
.	.	.	8cc\L	.	8e 8G/L	.	8ee\	.	8ee\	-fi-	.	.	.	.	.	8cc/	.	8eee\	.
!	!	!	!	!	!	!	!	!	!	!	!	!	!	!	!	!LO:N:vis=16	!	!	!
.	.	.	8ee\	.	8e 8G/	.	8dd\	.	8dd\	-ca-	.	.	.	.	.	8g/	.	8ddd\	.
!	!	!	!	!	!	!	!	!	!	!	!	!	!	!	!	!LO:N:vis=16	!	!	!
.	.	.	8gg\J	.	8e 8G/J	.	8cc\J	.	8cc\	-mus	.	.	.	.	.	8e/J	.	8ccc\J	.
!	!	!	!	!	!	!	!	!	!LO:LB:g=original	!	!	!	!	!	!	!	!	!	!
=14	=14	=14	=14	=14	=14	=14	=14	=14	=14	=14	=14	=14	=14	=14	=14	=14	=14	=14	=14
2G\	.	.	8r	.	8r	.	4b\	.	4dd\	te	.	.	.	.	.	4g/	.	4ddd\	.
*	*	*	*tremolo	*	*	*	*	*	*	*	*	*	*	*	*	*	*	*	*
.	.	.	8dd 8b/L	.	8g 8G/L	.	.	.	.	.	.	.	.	.	.	.	.	.	.
.	.	.	8dd 8b/	.	8g 8G/	.	4r	.	4r	.	.	.	.	.	.	4r	.	4r	.
.	.	.	8dd 8b/J	.	8g 8G/J	.	.	.	.	.	.	.	.	.	.	.	.	.	.
2G\	.	.	8r	.	8r	.	4r	.	4r	.	.	.	.	.	.	4r	.	4r	.
.	.	.	8dd 8b/L	.	8g/L	.	.	.	.	.	.	.	.	.	.	.	.	.	.
.	.	.	8dd 8b/	.	8g/	.	8.gg\L	.	8g/	a-	.	.	.	.	.	8g/L	.	8gg\L	.
.	.	.	8dd 8b/J	.	8g/J	.	.	.	8g/	-do-	.	.	.	.	.	8g/J	.	8gg\J	.
.	.	.	.	.	.	.	16gg\Jk	.	.	.	.	.	.	.	.	.	.	.	.
=15	=15	=15	=15	=15	=15	=15	=15	=15	=15	=15	=15	=15	=15	=15	=15	=15	=15	=15	=15
2C/	.	.	8r	.	8r	.	4.gg\	.	4g/	-ra-	.	0r	.	0r	.	4g/	.	4gg\	.
.	.	.	8cc/L	.	8e 8G/L	.	.	.	.	.	.	.	.	.	.	.	.	.	.
.	.	.	8cc/	.	8e 8G/	.	.	.	8e/	-mus	.	.	.	.	.	8e/L	.	8ee\L	.
.	.	.	8cc/J	.	8e 8G/J	.	8ee\	.	8e/	glo-	.	.	.	.	.	8e/J	.	8ee\J	.
2AA/	.	.	8r	.	8r	.	8bb-X\L	.	8b-X/	-ri-	.	.	.	.	.	8c#X/L	.	8bb-X\L	.
.	.	.	8cc#X/L	.	8g 8A/L	.	8bb-\	.	8b-/	-fi-	.	.	.	.	.	8e/	.	8bb-\	.
.	.	.	8cc#X/	.	8g 8A/	.	8aa\	.	8a/	-ca-	.	.	.	.	.	8a/	.	8aa\	.
.	.	.	8cc#X/J	.	8g 8A/J	.	8ee\J	.	8e/	-mus	.	.	.	.	.	8g/J	.	8ee\J	.
=16	=16	=16	=16	=16	=16	=16	=16	=16	=16	=16	=16	=16	=16	=16	=16	=16	=16	=16	=16
2D\	.	.	8r	.	8r	.	8gg\L	.	8g/L	te	.	.	.	.	.	8e/L	.	8gg\L	.
.	.	.	8dd/L	.	8f 8A/L	.	8ff#X\J	.	(8f#X/J	.	.	.	.	.	.	8d#X/J	.	8ff#X\J	.
.	.	.	8dd/	.	8f 8A/	.	4ffn\	.	4fn/)	.	.	.	.	.	.	4dn/	.	4ffn\	.
.	.	.	8dd/J	.	8f 8A/J	.	.	.	.	.	.	.	.	.	.	.	.	.	.
2F\	.	.	8r	.	8r	.	4r	.	4r	.	.	.	.	.	.	4r	.	4r	.
!	!	!	!LO:TX:t=P:LO:N:vis=4:problem	!	!	!	!	!	!	!	!	!	!	!	!	!	!	!	!
.	.	.	8a/L	.	8d/L	.	.	.	.	.	.	.	.	.	.	.	.	.	.
.	.	.	8a/	.	8d/	.	8a/L	.	8a\	a-	.	.	.	.	.	4f/	.	8aa\L	.
.	.	.	8a/J	.	8d/J	.	8dd/J	.	8dd\	-do-	.	.	.	.	.	.	.	8ddd\J	.
*	*	*	*Xtremolo	*	*Xtremolo	*	*	*	*	*	*	*	*	*	*	*	*	*	*
=17	=17	=17	=17	=17	=17	=17	=17	=17	=17	=17	=17	=17	=17	=17	=17	=17	=17	=17	=17
4G\	x 6_ 4_	.	4cc/	.	4e 4G/	.	4ee 4cc\	.	4ee\	-ra-	.	4G/	.	4g/	.	4g/	.	4eee\	.
4G\	.	.	8.cc/L	.	8.eL 8.G/	.	8eeL 8cc\	.	8cc\	-mus	.	8.G/L	.	8.g/L	.	8e/L	.	8ccc\L	.
.	.	.	.	.	.	.	8eeJ 8cc\	.	8cc\	be-	.	.	.	.	.	8e/J	.	8ccc\J	.
.	.	.	16cc/Jk	.	16eJk 16G/	.	.	.	.	.	.	16G/Jk	.	16g/Jk	.	.	.	.	.
4GG/	x x 7	.	4dd 4b/	.	4f 4G/	.	8ffL 8dd\	.	8dd\	-ne-	.	4G/	.	4g/	.	8f/L	.	8ddd\L	.
.	.	.	.	.	.	.	8ff 8dd\	.	8dd\	-di-	.	.	.	.	.	8f/J	.	8ddd\	.
4GG/	x x 7	.	4dd 4b/	.	4f 4G/	.	8ee 8cc\	.	8cc\	-ci-	.	4G/	.	4g/	.	8e/L	.	8ccc\	.
.	.	.	.	.	.	.	8dd\J	.	8b\	-mus	.	.	.	.	.	8d/J	.	8bb\J	.
=18	=18	=18	=18	=18	=18	=18	=18	=18	=18	=18	=18	=18	=18	=18	=18	=18	=18	=18	=18
4C/	x x 3	.	4cc/	.	8eL 8G'/	.	8eeL 8cc'\	.	4cc\	te	.	4c/	.	4c/	.	8e/L	.	8ccc|\L	.
.	.	.	.	.	(16e/L	.	(16ee\L	.	.	.	.	.	.	.	.	16e/L	.	16eee\L	.
.	.	.	.	.	16f/JJ)	.	16ff\JJ)	.	.	.	.	.	.	.	.	16f/JJ	.	16fff\JJ	.
!	!	!	!	!	!	!	!LO:TX:t=P:problem=mixed beam	!	!	!	!	!	!	!	!	!	!	!	!
4GG/	x x 7	.	4dd 4b/	.	8fL 8G'/	.	8gg'\L	.	4r	.	.	4G/	.	4g/	.	8g/L	.	8ggg\L	.
.	.	.	.	.	(16G/L	.	(16g/L	.	.	.	.	.	.	.	.	16g/L	.	16gg\L	.
.	.	.	.	.	16B/JJ)	.	16b/JJ)	.	.	.	.	.	.	.	.	16b/JJ	.	16bb\JJ	.
*	*	*	*	*	*	*	*	*	*	*	*	*	*	*	*	*	*	*custos:ff	*
!	!	!	!	!	!	!	!	!	!	!	!	!	!	!	!	!	!	!LO:LB:g=original	!
4C/	x x 3	.	4ee 4g/	.	4c/	.	4cc\	.	2r	.	.	4c/	.	4c/	.	4cc\	.	4ccc\	.
4r	.	.	4r	.	4r	.	4r	.	.	.	.	4r	.	4r	.	4r	.	4r	.
=19	=19	=19	=19	=19	=19	=19	=19||	=19	=19	=19	=19	=19	=19	=19	=19	=19	=19	=19	=19
!LO:TX:a:t=tasto Solo	!	!	!	!	!	!	!	!	!LO:TX:a:rj:t=Solo	!	!	!LO:TX:a:t=15	!	!LO:TX:a:t=15	!	!LO:TX:a:t=2	!	!LO:TX:a:t=7	!
2A-X\	.	.	8r	.	8r	.	8r	.	4cc\	gra-	.	1r	.	1r	.	0r	.	00r	.
*	*	*	*tremolo	*	*tremolo	*	*tremolo	*	*	*	*	*	*	*	*	*	*	*	*
!	!	!	!	!	!	!	!	!LO:DY:b:rj	!	!	!	!	!	!	!	!	!	!	!
.	.	.	8cc/L	.	8e-X/L	.	8a-X/L	p	.	.	.	.	.	.	.	.	.	.	.
.	.	.	8cc/	.	8e-X/	.	8a-X/	.	8cc\	-ti-	.	.	.	.	.	.	.	.	.
.	.	.	8cc/J	.	8e-X/J	.	8a-X/J	.	8cc\	-as	.	.	.	.	.	.	.	.	.
2G\	.	.	8r	.	8r	.	8r	.	4ee-X\	a-	.	.	.	.	.	.	.	.	.
.	.	.	8dd-X/L	.	8e-/L	.	8b-X/L	.	.	.	.	.	.	.	.	.	.	.	.
.	.	.	8dd-X/	.	8e-/	.	8b-X/	.	8b-X\	-gi-	.	.	.	.	.	.	.	.	.
.	.	.	8dd-X/J	.	8e-/J	.	8b-X/J	.	8bn\	-mus	.	.	.	.	.	.	.	.	.
=20	=20	=20	=20	=20	=20	=20	=20	=20	=20	=20	=20	=20	=20	=20	=20	=20	=20	=20	=20
*	*	*	*	*	*rep	*	*	*	*	*	*	*	*	*	*	*	*	*	*
!	!	!	!	!	!	!	!	!	!LO:N:vis=2	!	!	!	!	!	!	!	!	!	!
2A-X\	.	.	8r	.	8r	.	8r	.	4cc\	ti-	.	1r	.	1r	.	.	.	.	.
.	.	.	8cc/L	.	8e-X/L	.	8a-X/L	.	.	.	.	.	.	.	.	.	.	.	.
.	.	.	8cc/	.	8e-X/	.	8a-X/	.	4a-X\	-bi	.	.	.	.	.	.	.	.	.
.	.	.	8cc/J	.	8e-X/J	.	8a-X/J	.	.	.	.	.	.	.	.	.	.	.	.
2A-\	.	.	8r	.	8r	.	8r	.	4r	.	.	.	.	.	.	.	.	.	.
.	.	.	8cc/L	.	8e-/L	.	8a-/L	.	.	.	.	.	.	.	.	.	.	.	.
.	.	.	8cc/	.	8e-/	.	8a-/	.	8a-\	prop-	.	.	.	.	.	.	.	.	.
.	.	.	8cc/J	.	8e-/J	.	8a-/J	.	8a-\	-ter	.	.	.	.	.	.	.	.	.
*	*	*	*Xtremolo	*	*Xrep	*	*Xtremolo	*	*	*	*	*	*	*	*	*	*	*	*
*	*	*	*	*	*Xtremolo	*	*	*	*	*	*	*	*	*	*	*	*	*	*
!	!	!	!	!	!LO:LB:g=original	!	!LO:LB:g=original	!	!LO:LB:g=original	!	!	!	!	!	!	!	!	!	!
=21	=21	=21	=21	=21	=21	=21	=21	=21	=21	=21	=21	=21	=21	=21	=21	=21	=21	=21	=21
4D-X\	.	.	4dd-X/	.	8r	.	8r	.	4ff\	ma-	.	1r	.	1r	.	8r	.	.	.
!	!	!	!	!	!	!	!	!	!	!	!	!	!	!	!	!	!LO:DY:b:rj	!	!
.	.	.	.	.	8f/	.	8a-X/	.	.	.	.	.	.	.	.	8ff\	p	.	.
4C\	.	.	4cc/	.	8r	.	8r	.	4ee-X\	-gnam	.	.	.	.	.	8r	.	.	.
.	.	.	.	.	8e-X/	.	8a-/	.	.	.	.	.	.	.	.	8ee-X\	.	.	.
4B-X\	.	.	4b-/	.	8r	.	8r	.	4dd-X\	glo-	.	.	.	.	.	8r	.	.	.
.	.	.	.	.	8e-/	.	8g/	.	.	.	.	.	.	.	.	8dd-X\	.	.	.
4A-X\	.	.	4a-X/	.	8r	.	8r	.	8cc\	-ri-	.	.	.	.	.	8r	.	.	.
.	.	.	.	.	8e-/	.	8a-/	.	8cc\	-am	.	.	.	.	.	8cc\	.	.	.
=22	=22	=22	=22	=22	=22	=22	=22	=22	=22	=22	=22	=22	=22	=22	=22	=22	=22	=22	=22
2E-X\	.	.	8r	.	8r	.	8r	.	(4.b-X\	tu-	.	1r	.	1r	.	(4.g/	.	.	.
*	*	*	*tremolo	*	*tremolo	*	*tremolo	*	*	*	*	*	*	*	*	*	*	*	*
.	.	.	8g/L	.	8e-X/L	.	8g 8B-X/L	.	.	.	.	.	.	.	.	.	.	.	.
.	.	.	8g/	.	8e-X/	.	8g 8B-X/	.	.	.	.	.	.	.	.	.	.	.	.
.	.	.	8g/J	.	8e-X/J	.	8g 8B-X/J	.	16dd-X\LL	.	.	.	.	.	.	16b-X/LL	.	.	.
.	.	.	.	.	.	.	.	.	16cc\JJ)	.	.	.	.	.	.	16a-X/JJ	.	.	.
2E-\	.	.	8r	.	8r	.	8r	.	4b-\	-am	.	.	.	.	.	4g/)	.	.	.
.	.	.	8g/L	.	8e-/L	.	8g 8B-/L	.	.	.	.	.	.	.	.	.	.	.	.
.	.	.	8g/	.	8e-/	.	8g 8B-/	.	4r	.	.	.	.	.	.	4r	.	.	.
.	.	.	8g/J	.	8e-/J	.	8g 8B-/J	.	.	.	.	.	.	.	.	.	.	.	.
*	*	*	*Xtremolo	*	*Xtremolo	*	*	*	*	*	*	*	*	*	*	*	*	*	*
=23	=23	=23	=23	=23	=23	=23	=23	=23	=23	=23	=23	=23	=23	=23	=23	=23	=23	=23	=23
!	!	!	!	!	!	!	!	!	!	!	!	!	!	!	!	!LO:TX:a:t=3	!	!	!
2D\	.	.	4b-/	.	8r	.	8r	.	4b-X\	Do-	.	1r	.	1r	.	0r	.	0r	.
.	.	.	.	.	8B-X/	.	8f 8A-X/L	.	.	.	.	.	.	.	.	.	.	.	.
.	.	.	8b-/L	.	8r	.	8f 8A-X/	.	8b-\	-mi-	.	.	.	.	.	.	.	.	.
.	.	.	8b-/J	.	8B-/	.	8f 8A-X/J	.	8b-\	-ne	.	.	.	.	.	.	.	.	.
2D\	.	.	8cc/L	.	8r	.	8r	.	(8cc\L	De-	.	.	.	.	.	.	.	.	.
*	*	*	*	*	*tremolo	*	*	*	*	*	*	*	*	*	*	*	*	*	*
.	.	.	8dd/J	.	8B-/L	.	8f 8A-/L	.	8dd\J)	.	.	.	.	.	.	.	.	.	.
*	*	*	*custos:cc	*	*	*	*	*	*	*	*	*	*	*	*	*	*	*	*
!	!	!	!LO:LB:g=original	!	!	!	!	!	!	!	!	!	!	!	!	!	!	!	!
.	.	.	8ee-X/L	.	8B-/	.	8f 8A-/	.	(8ee-X\L	-us	.	.	.	.	.	.	.	.	.
.	.	.	8ff/J	.	8B-/J	.	8f 8A-/J	.	8ff\J)	.	.	.	.	.	.	.	.	.	.
=24	=24	=24	=24	=24	=24	=24	=24	=24	=24	=24	=24	=24	=24	=24	=24	=24	=24	=24	=24
2E-X\	.	.	2gg\	.	8r	.	8r	.	2gg\	Rex	.	1r	.	1r	.	.	.	.	.
!	!	!	!	!	!	!	!LO:TX:t=P:LO:SIC:v:n=2:s=4.B-/:problem	!	!	!	!	!	!	!	!	!	!	!	!
.	.	.	.	.	8e-X 8G/L	.	8g 8B/L	.	.	.	.	.	.	.	.	.	.	.	.
.	.	.	.	.	8e-X 8G/	.	8g 8B/	.	.	.	.	.	.	.	.	.	.	.	.
.	.	.	.	.	8e-X 8G/J	.	8g 8B/J	.	.	.	.	.	.	.	.	.	.	.	.
2A-X\	.	.	8r	.	8r	.	8r	.	8r	.	.	.	.	.	.	.	.	.	.
.	.	.	8ff/L	.	8c/L	.	8f/L	.	8ff\	coe-	.	.	.	.	.	.	.	.	.
.	.	.	8ee-X/	.	8c/	.	8f/	.	8ee-X\	-les-	.	.	.	.	.	.	.	.	.
.	.	.	8cc/J	.	8c/J	.	8f/J	.	8cc\	-tis	.	.	.	.	.	.	.	.	.
=25	=25	=25	=25	=25	=25	=25	=25	=25	=25	=25	=25	=25	=25	=25	=25	=25	=25	=25	=25
2B-X 2BB-X\	.	.	4b-/	.	8r	.	8r	.	4b-X\	pa-	.	1r	.	1r	.	1r	.	1r	.
.	.	.	.	.	8e-X/L	.	8g 8B-X/L	.	.	.	.	.	.	.	.	.	.	.	.
.	.	.	8a/L	.	8e-X/	.	8g 8B-/	.	8a\	-trem	.	.	.	.	.	.	.	.	.
.	.	.	8b-/J	.	8e-X/J	.	8g 8B-/J	.	8b-\	o-	.	.	.	.	.	.	.	.	.
2BB-/	.	.	4gg\	.	8r	.	8r	.	4gg\	-mni-	.	.	.	.	.	.	.	.	.
.	.	.	.	.	8d 8B-X/L	.	8a-X/L	.	.	.	.	.	.	.	.	.	.	.	.
.	.	.	4ff\	.	8d 8B-X/	.	8a-/	.	4ff\	-po-	.	.	.	.	.	.	.	.	.
.	.	.	.	.	8d 8B-X/J	.	8a-/J	.	.	.	.	.	.	.	.	.	.	.	.
*	*	*	*	*	*Xtremolo	*	*Xtremolo	*	*	*	*	*	*	*	*	*	*	*	*
=26	=26	=26	=26	=26	=26	=26	=26	=26	=26	=26	=26	=26	=26	=26	=26	=26	=26	=26	=26
4E-X\	x 5-_ 3-_	.	4ee-X\	.	4e-X 4G/	.	4g 4B-X/	.	4ee-X\	-tens	.	1r	.	1r	.	4r	.	4r	.
!	!	!	!	!	!	!	!	!LO:DY:b:rj	!	!	!	!	!	!	!	!	!	!	!
4E-\	.	.	4b-/	.	4e-/	.	4g 4B-/	f	4r	.	.	.	.	.	.	4ee-X\	.	4eee-X\	.
4F\	6 4 3-	.	4a-X/	.	4d 4B-X/	.	4f/	.	2r	.	.	.	.	.	.	4dd\	.	4ddd\	.
4G\	6- 5- 3-	.	4ee-/	.	4d-X/	.	4g 4B-/	.	.	.	.	.	.	.	.	4dd-X\	.	4ddd-X\	.
!	!	!	!	!	!	!	!	!	!	!	!	!	!	!	!	!LO:LB:g=original	!	!	!
=27	=27	=27	=27	=27	=27	=27	=27	=27	=27	=27	=27	=27	=27	=27	=27	=27	=27	=27	=27
!	!	!	!	!	!	!	!	!	!	!	!	!	!	!	!	!LO:TX:t=P:problem=8 zamiast 9, brak 1r	!	!	!
!LO:TX:a:t=tasto	!	!	!	!	!	!	!	!	!	!	!	!	!	!	!	!LO:TX:a:t=8	!	!LO:TX:a:t=9	!
2A-X\	.	.	8r	.	8r	.	8r	.	4cc\	Do-	.	1r	.	1r	.	00r	.	00r	.
*	*	*	*tremolo	*	*tremolo	*	*tremolo	*	*	*	*	*	*	*	*	*	*	*	*
!	!	!	!	!	!	!	!	!LO:DY:b:rj	!	!	!	!	!	!	!	!	!	!	!
.	.	.	8cc/L	.	8e-X/L	.	8a-X/L	p	.	.	.	.	.	.	.	.	.	.	.
.	.	.	8cc/	.	8e-X/	.	8a-X/	.	8b\	-mi-	.	.	.	.	.	.	.	.	.
.	.	.	8cc/J	.	8e-X/J	.	8a-X/J	.	8cc\	-nus	.	.	.	.	.	.	.	.	.
2G\	.	.	8r	.	8r	.	8r	.	(8ff\L	a-	.	.	.	.	.	.	.	.	.
.	.	.	8dd-X/L	.	8e-/L	.	8b-X/L	.	8ee-X\J)	.	.	.	.	.	.	.	.	.	.
.	.	.	8dd-X/	.	8e-/	.	8b-X/	.	(8b-X\L	-gnus	.	.	.	.	.	.	.	.	.
.	.	.	8dd-X/J	.	8e-/J	.	8b-X/J	.	8bn\J)	.	.	.	.	.	.	.	.	.	.
!LO:LB:g=original	!	!	!	!	!	!	!	!	!	!	!	!	!	!	!	!	!	!	!
=28	=28	=28	=28	=28	=28	=28	=28	=28	=28	=28	=28	=28	=28	=28	=28	=28	=28	=28	=28
*	*	*	*	*	*rep	*	*	*	*	*	*	*	*	*	*	*	*	*	*
2A-X\	.	.	8r	.	8r	.	8r	.	2cc\	De-	.	1r	.	1r	.	.	.	.	.
.	.	.	8cc/L	.	8e-X/L	.	8a-X/L	.	.	.	.	.	.	.	.	.	.	.	.
.	.	.	8cc/	.	8e-X/	.	8a-X/	.	.	.	.	.	.	.	.	.	.	.	.
.	.	.	8cc/J	.	8e-X/J	.	8a-X/J	.	.	.	.	.	.	.	.	.	.	.	.
2A-\	.	.	8r	.	8r	.	8r	.	4a-X\	-i	.	.	.	.	.	.	.	.	.
.	.	.	8cc/L	.	8e-/L	.	8a-/L	.	.	.	.	.	.	.	.	.	.	.	.
.	.	.	8cc/	.	8e-/	.	8a-/	.	4r	.	.	.	.	.	.	.	.	.	.
.	.	.	8cc/J	.	8e-/J	.	8a-/J	.	.	.	.	.	.	.	.	.	.	.	.
*	*	*	*Xtremolo	*	*Xrep	*	*Xtremolo	*	*	*	*	*	*	*	*	*	*	*	*
*	*	*	*	*	*Xtremolo	*	*	*	*	*	*	*	*	*	*	*	*	*	*
!	!	!	!	!	!	!	!	!	!LO:LB:g=original	!	!	!	!	!	!	!	!	!	!
=29	=29	=29	=29	=29	=29	=29	=29	=29	=29	=29	=29	=29	=29	=29	=29	=29	=29	=29	=29
4F\	.	.	8r	.	8r	.	8r	.	4dd-X\	fi-	.	1r	.	1r	.	.	.	.	.
.	.	.	8a-X/	.	8d-X/	.	8a-X/	.	.	.	.	.	.	.	.	.	.	.	.
4E-X\	.	.	8r	.	8r	.	8r	.	8cc\	-li-	.	.	.	.	.	.	.	.	.
.	.	.	8cc/	.	8e-X/	.	8a-/	.	8cc\	-us	.	.	.	.	.	.	.	.	.
4D-X\	.	.	8r	.	8r	.	8r	.	4ff\	De-	.	.	.	.	.	.	.	.	.
.	.	.	8dd-X/	.	8f/	.	8a-/	.	.	.	.	.	.	.	.	.	.	.	.
4C\	.	.	8r	.	8r	.	8r	.	4ee-X\	-i	.	.	.	.	.	.	.	.	.
.	.	.	8a-X/	.	8e-/	.	8a-/	.	.	.	.	.	.	.	.	.	.	.	.
=30	=30	=30	=30	=30	=30	=30	=30	=30	=30	=30	=30	=30	=30	=30	=30	=30	=30	=30	=30
2G\	.	.	8r	.	8r	.	8r	.	(4.ee-X\	Pa-	.	1r	.	1r	.	.	.	.	.
*	*	*	*tremolo	*	*tremolo	*	*tremolo	*	*	*	*	*	*	*	*	*	*	*	*
.	.	.	8dd-X/L	.	8e-X 8G/L	.	8b-X/L	.	.	.	.	.	.	.	.	.	.	.	.
.	.	.	8dd-X/	.	8e-X 8G/	.	8b-X/	.	.	.	.	.	.	.	.	.	.	.	.
.	.	.	8dd-X/J	.	8e-X 8G/J	.	8b-X/J	.	8dd-X\)	.	.	.	.	.	.	.	.	.	.
*	*	*	*	*	*custos:cc	*	*	*	*	*	*	*	*	*	*	*	*	*	*
!	!	!	!	!	!LO:LB:g=original	!	!	!	!	!	!	!	!	!	!	!	!	!	!
2A-X\	.	.	8r	.	8r	.	8r	.	4cc\	-tris	.	.	.	.	.	.	.	.	.
.	.	.	8cc/L	.	8e-X/L	.	8a-X/L	.	.	.	.	.	.	.	.	.	.	.	.
.	.	.	8cc/	.	8e-X/	.	8a-X/	.	4r	.	.	.	.	.	.	.	.	.	.
.	.	.	8cc/J	.	8e-X/J	.	8a-X/J	.	.	.	.	.	.	.	.	.	.	.	.
*	*	*	*Xtremolo	*	*Xtremolo	*	*Xtremolo	*	*	*	*	*	*	*	*	*	*	*	*
=31	=31	=31	=31	=31	=31	=31	=31	=31	=31	=31	=31	=31	=31	=31	=31	=31	=31	=31	=31
4A-X\	x 5-_ 3_	.	8r	.	8r	.	8r	.	(4.cc\	qui	.	1r	.	1r	.	00r	.	00r	.
.	.	.	8cc/	.	8e-X/	.	8a-X/	.	.	.	.	.	.	.	.	.	.	.	.
4G-X\	.	.	8r	.	8r	.	8r	.	.	.	.	.	.	.	.	.	.	.	.
.	.	.	8cc/	.	8e-/	.	8a-/	.	16b-X\LL	.	.	.	.	.	.	.	.	.	.
.	.	.	.	.	.	.	.	.	16cc\JJ)	.	.	.	.	.	.	.	.	.	.
*	*	*	*	*	*	*	*custos:ee	*	*	*	*	*	*	*	*	*	*	*	*
!	!	!	!	!	!	!	!LO:LB:g=original	!	!	!	!	!	!	!	!	!	!	!	!
2F\	x 6- 3-	.	8r	.	8r	.	8r	.	4dd-X\	tol-	.	.	.	.	.	.	.	.	.
*	*	*	*tremolo	*	*tremolo	*	*tremolo	*	*	*	*	*	*	*	*	*	*	*	*
.	.	.	8a-X/L	.	8d-X/L	.	8a-/L	.	.	.	.	.	.	.	.	.	.	.	.
.	.	.	8a-X/	.	8d-X/	.	8a-/	.	8dd-\	-lis	.	.	.	.	.	.	.	.	.
.	.	.	8a-X/J	.	8d-X/J	.	8a-/J	.	8dd-\	pec-	.	.	.	.	.	.	.	.	.
*	*	*	*Xtremolo	*	*Xtremolo	*	*Xtremolo	*	*	*	*	*	*	*	*	*	*	*	*
=32	=32	=32	=32	=32	=32	=32	=32	=32	=32	=32	=32	=32	=32	=32	=32	=32	=32	=32	=32
4B-X\	x 5_ 3_	.	8r	.	8r	.	8r	.	4.ddn\	-ca-	.	1r	.	1r	.	.	.	.	.
.	.	.	8ff\	.	8a-X/	.	8b-X 8d/	.	.	.	.	.	.	.	.	.	.	.	.
4A-X\	.	.	8r	.	8r	.	8r	.	.	.	.	.	.	.	.	.	.	.	.
.	.	.	8ff\	.	8a-/	.	8b- 8d/	.	(16cc\LL	-ta	.	.	.	.	.	.	.	.	.
.	.	.	.	.	.	.	.	.	16dd\JJ)	.	.	.	.	.	.	.	.	.	.
2G\	x 6- 3-	.	8r	.	8r	.	8r	.	4ee-X\	mun-	.	.	.	.	.	.	.	.	.
*	*	*	*tremolo	*	*tremolo	*	*tremolo	*	*	*	*	*	*	*	*	*	*	*	*
!	!	!	!	!	!LO:TX:t=P:LO:SIC:v:s=4.e-/:problem	!	!	!	!	!	!	!	!	!	!	!	!	!	!
.	.	.	8b-/L	.	8e/L	.	8b-/L	.	.	.	.	.	.	.	.	.	.	.	.
.	.	.	8b-/	.	8e/	.	8b-/	.	4ee-\	-di	.	.	.	.	.	.	.	.	.
.	.	.	8b-/J	.	8e/J	.	8b-/J	.	.	.	.	.	.	.	.	.	.	.	.
*	*	*	*Xtremolo	*	*Xtremolo	*	*Xtremolo	*	*	*	*	*	*	*	*	*	*	*	*
=33	=33	=33	=33	=33	=33	=33	=33	=33	=33	=33	=33	=33	=33	=33	=33	=33	=33	=33	=33
4c\	x 5_ 3_	.	8r	.	8r	.	8r	.	4.een\	mi-	.	1r	.	1r	.	.	.	.	.
!	!	!	!	!	!LO:SIC:v:s=8b-\	!	!	!	!	!	!	!	!	!	!	!	!	!	!
.	.	.	8cc/	.	8dd-X\	.	8cc 8e/	.	.	.	.	.	.	.	.	.	.	.	.
4B-X\	.	.	8r	.	8r	.	8r	.	.	.	.	.	.	.	.	.	.	.	.
!	!	!	!	!	!LO:SIC:v:s=8b-\	!	!	!	!	!	!	!	!	!	!	!	!	!	!
.	.	.	8cc/	.	8b\	.	8cc 8e/	.	(16dd\LL	-se-	.	.	.	.	.	.	.	.	.
.	.	.	.	.	.	.	.	.	16ee\JJ)	.	.	.	.	.	.	.	.	.	.
4A\	x x 6	.	8r	.	8r	.	8r	.	4ff\	-re-	.	.	.	.	.	.	.	.	.
.	.	.	8cc/	.	8f/	.	8cc\	.	.	.	.	.	.	.	.	.	.	.	.
4A-X\	6# 4 3	.	8r	.	8r	.	8r	.	4ff#X\	-re	.	.	.	.	.	.	.	.	.
.	.	.	8dd/	.	8f#X/	.	8cc 8d/	.	.	.	.	.	.	.	.	.	.	.	.
!	!	!	!LO:LB:g=original	!	!	!	!	!	!	!	!	!	!	!	!	!	!	!	!
=34	=34	=34	=34	=34	=34	=34	=34	=34	=34	=34	=34	=34	=34	=34	=34	=34	=34	=34	=34
!	!	!LO:DY:b:rj	!	!LO:DY:b:rj	!	!LO:DY:b:rj	!	!LO:DY:b:rj	!	!	!	!	!	!	!	!	!	!	!
4G/	x 5_ 3_	f	4gg 4b/	f	4dd 4d/	f	4gg 4b\	f	2gg\	no-	.	4G/	.	4g/	.	.	.	.	.
!	!	!	!	!	!LO:N:n=2:vis=8	!	!	!	!	!	!	!	!	!	!	!	!	!	!
4G 4GG/	.	.	8.ddL 8.b/	.	8.gL 8.G/	.	4g 4G/	.	.	.	.	8.G/L	.	4g/	.	.	.	.	.
.	.	.	16ddJk 16b/	.	16gJk 16G/	.	.	.	.	.	.	16G/Jk	.	.	.	.	.	.	.
4G 4GG/	.	.	4dd 4b/	.	4g 4G/	.	8gL 8G/	.	4g\	-bis	.	4G/	.	4g/	.	.	.	.	.
.	.	.	.	.	.	.	16g/L	.	.	.	.	.	.	.	.	.	.	.	.
.	.	.	.	.	.	.	16g/JJ	.	.	.	.	.	.	.	.	.	.	.	.
*	*	*	*	*	*	*	*tremolo	*	*	*	*	*	*	*	*	*	*	*	*
4G 4GG/	.	.	4dd 4b/	.	4g 4G/	.	16a/LL	.	4r	.	.	4G/	.	4g/	.	.	.	.	.
.	.	.	.	.	.	.	16a/	.	.	.	.	.	.	.	.	.	.	.	.
.	.	.	.	.	.	.	16b/	.	.	.	.	.	.	.	.	.	.	.	.
.	.	.	.	.	.	.	16b/JJ	.	.	.	.	.	.	.	.	.	.	.	.
=35	=35	=35	=35	=35	=35	=35	=35	=35	=35	=35	=35	=35	=35	=35	=35	=35	=35	=35	=35
!	!	!	!	!	!	!	!	!	!LO:TX:a:t=4	!	!	!	!	!	!	!	!	!	!
*	*	*	*	*	*	*	*	*	*	*	*	*	*	*rep	*	*	*	*	*
4G 4GG/	x 6-_ 4_	.	4cc/	.	4e-X 4G/	.	16cc\LL	.	00r	.	.	4c/	.	4g/	.	1ryy	.	1r	.
.	.	.	.	.	.	.	16cc\	.	.	.	.	.	.	.	.	.	.	.	.
.	.	.	.	.	.	.	16b\	.	.	.	.	.	.	.	.	.	.	.	.
.	.	.	.	.	.	.	16b\	.	.	.	.	.	.	.	.	.	.	.	.
4G 4GG/	.	.	4cc/	.	4e- 4G/	.	16cc\	.	.	.	.	4c/	.	4g/	.	.	.	.	.
.	.	.	.	.	.	.	16cc\	.	.	.	.	.	.	.	.	.	.	.	.
.	.	.	.	.	.	.	16dd\	.	.	.	.	.	.	.	.	.	.	.	.
.	.	.	.	.	.	.	16dd\JJ	.	.	.	.	.	.	.	.	.	.	.	.
4G 4GG/	.	.	4cc/	.	4e- 4G/	.	16ee-X\LL	.	.	.	.	4c/	.	4g/	.	.	.	.	.
.	.	.	.	.	.	.	16ee-X\	.	.	.	.	.	.	.	.	.	.	.	.
.	.	.	.	.	.	.	16dd\	.	.	.	.	.	.	.	.	.	.	.	.
.	.	.	.	.	.	.	16dd\	.	.	.	.	.	.	.	.	.	.	.	.
4G 4GG/	.	.	4cc/	.	4e- 4G/	.	16ee-\	.	.	.	.	4c/	.	4g/	.	.	.	.	.
.	.	.	.	.	.	.	16ee-\	.	.	.	.	.	.	.	.	.	.	.	.
.	.	.	.	.	.	.	16cc\	.	.	.	.	.	.	.	.	.	.	.	.
.	.	.	.	.	.	.	16cc\JJ	.	.	.	.	.	.	.	.	.	.	.	.
*	*	*	*	*	*	*	*Xtremolo	*	*	*	*	*	*	*Xrep	*	*	*	*	*
=36	=36	=36	=36	=36	=36	=36	=36	=36	=36	=36	=36	=36	=36	=36	=36	=36	=36	=36	=36
*	*	*	*	*	*	*	*	*	*	*	*	*	*	*rep	*	*	*	*	*
4G 4GG/	x 5_ 3_	.	4gg 4b/	.	4d/	.	4gg 4b\	.	.	.	.	4G/	.	4g/	.	4g/	.	4gg\	.
4G 4GG/	.	.	8.ddL 8.b/	.	8.gL 8.G/	.	8.gL 8.G/	.	.	.	.	8.G/L	.	4g/	.	8.g/L	.	8.gg\L	.
.	.	.	16ddJk 16b/	.	16gJk 16G/	.	16gJk 16G/	.	.	.	.	16G/Jk	.	.	.	16g/Jk	.	16gg\Jk	.
4G 4GG/	.	.	4dd 4b/	.	4g 4G/	.	8gL 8G/	.	.	.	.	4G/	.	4g/	.	8g/L	.	8gg\L	.
.	.	.	.	.	.	.	16g/L	.	.	.	.	.	.	.	.	8g/	.	8gg\	.
.	.	.	.	.	.	.	16g/JJ	.	.	.	.	.	.	.	.	.	.	.	.
*	*	*	*	*	*	*	*tremolo	*	*	*	*	*	*	*	*	*	*	*	*
4G 4GG/	.	.	4dd 4b/	.	4g 4G/	.	16a/LL	.	.	.	.	4G/	.	4g/	.	8a/	.	8aa\	.
.	.	.	.	.	.	.	16a/	.	.	.	.	.	.	.	.	.	.	.	.
.	.	.	.	.	.	.	16b/	.	.	.	.	.	.	.	.	8b/J	.	8bb\J	.
.	.	.	.	.	.	.	16b/JJ	.	.	.	.	.	.	.	.	.	.	.	.
*	*	*	*	*	*	*	*	*	*	*	*	*	*	*Xrep	*	*	*	*	*
=37	=37	=37	=37	=37	=37	=37	=37	=37	=37	=37	=37	=37	=37	=37	=37	=37	=37	=37	=37
*	*	*	*	*	*	*	*	*	*	*	*	*	*	*rep	*	*	*	*	*
4G 4GG/	x 6-_ 4_	.	4cc/	.	4e-X 4G/	.	16cc\LL	.	.	.	.	4c/	.	4g/	.	8cc\L	.	8ccc\L	.
.	.	.	.	.	.	.	16cc\	.	.	.	.	.	.	.	.	.	.	.	.
.	.	.	.	.	.	.	16b\	.	.	.	.	.	.	.	.	8b\	.	8bb\	.
.	.	.	.	.	.	.	16b\	.	.	.	.	.	.	.	.	.	.	.	.
*	*	*	*	*	*rep	*	*	*	*	*	*	*	*	*	*	*	*	*	*
4G 4GG/	.	.	4cc/	.	4e- 4G/	.	16cc\	.	.	.	.	4c/	.	4g/	.	8cc\	.	8ccc\	.
.	.	.	.	.	.	.	16cc\	.	.	.	.	.	.	.	.	.	.	.	.
.	.	.	.	.	.	.	16dd\	.	.	.	.	.	.	.	.	8dd\J	.	8ddd\J	.
.	.	.	.	.	.	.	16dd\JJ	.	.	.	.	.	.	.	.	.	.	.	.
*	*	*	*	*	*Xrep	*	*	*	*	*	*	*	*	*	*	*	*	*	*
*	*	*	*	*	*rep	*	*	*	*	*	*	*	*	*	*	*	*	*	*
4G 4GG/	.	.	4cc/	.	4e- 4G/	.	16ee-X\LL	.	.	.	.	4c/	.	4g/	.	8ee-X\L	.	8eee-X\L	.
.	.	.	.	.	.	.	16ee-X\	.	.	.	.	.	.	.	.	.	.	.	.
.	.	.	.	.	.	.	16dd\	.	.	.	.	.	.	.	.	8dd\	.	8ddd\	.
.	.	.	.	.	.	.	16dd\	.	.	.	.	.	.	.	.	.	.	.	.
*	*	*	*	*	*Xrep	*	*	*	*	*	*	*	*	*	*	*	*	*	*
*	*	*	*	*	*rep	*	*	*	*	*	*	*	*	*	*	*	*	*	*
4G 4GG/	.	.	4cc/	.	4e- 4G/	.	16ee-\	.	.	.	.	4c/	.	4g/	.	8ee-\	.	8eee-\	.
.	.	.	.	.	.	.	16ee-\	.	.	.	.	.	.	.	.	.	.	.	.
.	.	.	.	.	.	.	16cc\	.	.	.	.	.	.	.	.	8cc\J	.	8ccc\J	.
.	.	.	.	.	.	.	16cc\JJ	.	.	.	.	.	.	.	.	.	.	.	.
*	*	*	*	*	*Xrep	*	*Xtremolo	*	*	*	*	*	*	*Xrep	*	*	*	*	*
=38	=38	=38	=38	=38	=38	=38	=38	=38	=38	=38	=38	=38	=38	=38	=38	=38	=38	=38	=38
4G 4GG/	x 5_ 3_	.	4dd 4b/	.	4g 4G/	.	4g/	.	.	.	.	4G/	.	4g/	.	4gg\	.	4ggg\	.
4G 4GG/	.	.	4g/	.	4g 4G/	.	4g/	.	.	.	.	4G/	.	4g/	.	4g/	.	4gg\	.
8r	x x x	.	8r	.	2r	.	8r	.	.	.	.	2r	.	2r	.	8r	.	8r	.
!LO:TX:a:t=unisono	!	!LO:DY:b:rj	!	!	!	!	!	!	!	!	!	!	!	!	!	!	!	!	!
8G\L	.	f	8g/L	.	.	.	8g/L	.	.	.	.	.	.	.	.	8g/L	.	8gg\L	.
8F\	.	.	8a/	.	.	.	8a/	.	.	.	.	.	.	.	.	8a/	.	8aa\	.
8D\J	.	.	8b/J	.	.	.	8b/J	.	.	.	.	.	.	.	.	8b/J	.	8bb\J	.
!	!	!	!	!	!	!	!	!	!	!	!	!LO:LB:g=original	!	!	!	!	!	!	!
=39	=39	=39	=39	=39	=39	=39	=39	=39	=39	=39	=39	=39	=39	=39	=39	=39	=39	=39	=39
*	*	*	*tremolo	*	*tremolo	*	*tremolo	*	*	*	*	*	*	*	*	*	*	*	*
!	!	!	!	!	!	!LO:DY:b:rj	!	!	!	!	!LO:DY:a	!	!	!	!	!	!	!	!
8C/L	.	.	16cc/LL	.	16cc\LL	f	16cc\LL	.	(8cc\L	quo-	f	4c/	.	4c/	.	8cc\L	.	8ccc\L	.
.	.	.	16cc/	.	16cc\	.	16cc\	.	.	.	.	.	.	.	.	.	.	.	.
8BB/	.	.	16b/	.	16b\	.	16b\	.	8b\J)	.	.	.	.	.	.	8b\	.	8bb\	.
.	.	.	16b/	.	16b\	.	16b\	.	.	.	.	.	.	.	.	.	.	.	.
8C/	.	.	16cc/	.	16cc\	.	16cc\	.	(8cc\L	-ni-	.	4r	.	4r	.	8cc\	.	8ccc\	.
.	.	.	16cc/	.	16cc\	.	16cc\	.	.	.	.	.	.	.	.	.	.	.	.
8E/J	.	.	16ee/	.	16ee\	.	16ee\	.	8ee\J)	.	.	.	.	.	.	8ee\J	.	8eee\J	.
.	.	.	16ee/JJ	.	16ee\JJ	.	16ee\JJ	.	.	.	.	.	.	.	.	.	.	.	.
*	*	*	*	*	*	*	*custos:cc	*	*	*	*	*	*	*	*	*	*	*	*
!	!	!	!	!	!	!	!LO:LB:g=original	!	!	!	!	!	!	!	!	!	!	!	!
8D/L	.	.	16dd/LL	.	16dd\LL	.	16dd\LL	.	(8dd\L	-am	.	8c/	.	8c/	.	8dd\L	.	8ddd\L	.
.	.	.	16dd/	.	16dd\	.	16dd\	.	.	.	.	.	.	.	.	.	.	.	.
8C/	.	.	16cc/	.	16cc\	.	16cc\	.	8cc\J)	.	.	8r	.	8r	.	8cc\	.	8ccc\	.
.	.	.	16cc/	.	16cc\	.	16cc\	.	.	.	.	.	.	.	.	.	.	.	.
8BB/	.	.	16b/	.	16b\	.	16b\	.	8b\L	tu	.	8c/	.	8c/	.	8b\	.	8bb\	.
.	.	.	16b/	.	16b\	.	16b\	.	.	.	.	.	.	.	.	.	.	.	.
8C/J	.	.	16cc/	.	16cc\	.	16cc\	.	8cc\J	.	.	8r	.	8r	.	8cc\J	.	8ccc\J	.
.	.	.	16cc/JJ	.	16cc\JJ	.	16cc\JJ	.	.	.	.	.	.	.	.	.	.	.	.
!LO:LB:g=original	!	!	!	!	!LO:LB:g=original	!	!	!	!	!	!	!	!	!	!	!	!	!	!
=40	=40	=40	=40	=40	=40	=40	=40	=40	=40	=40	=40	=40	=40	=40	=40	=40	=40	=40	=40
2F\	6_ 5_ 3-_	.	16cc/LL	.	16dd 16f/LL	.	16aa-X 16cc\LL	.	2aa-X\	so-	.	2.c/	.	2.c/	.	2a-X/	.	2aaa-X\	.
.	.	.	16cc/	.	16dd 16f/	.	16aa-X 16cc\	.	.	.	.	.	.	.	.	.	.	.	.
.	.	.	16cc/	.	16dd 16f/	.	16aa-X 16cc\	.	.	.	.	.	.	.	.	.	.	.	.
.	.	.	16cc/	.	16dd 16f/	.	16aa-X 16cc\	.	.	.	.	.	.	.	.	.	.	.	.
.	.	.	16cc/	.	16dd 16f/	.	16aa-X 16cc\	.	.	.	.	.	.	.	.	.	.	.	.
.	.	.	16cc/	.	16dd 16f/	.	16aa-X 16cc\	.	.	.	.	.	.	.	.	.	.	.	.
.	.	.	16cc/	.	16dd 16f/	.	16aa-X 16cc\	.	.	.	.	.	.	.	.	.	.	.	.
.	.	.	16cc/JJ	.	16dd 16f/JJ	.	16aa-X 16cc\JJ	.	.	.	.	.	.	.	.	.	.	.	.
*	*	*	*Xtremolo	*	*Xtremolo	*	*Xtremolo	*	*	*	*	*	*	*	*	*	*	*	*
!	!	!	!	!	!	!	!	!	!LO:SIC:v:s=4a-\	!	!	!	!	!	!	!	!	!LO:SIC:v:s=4aa-\	!
4F\	.	.	4cc/	.	4dd 4f/	.	4aa- 4cc\	.	4a\	-lus	.	.	.	.	.	4a-/	.	4aa\	.
4r	x x x	.	4r	.	4r	.	4r	.	4r	.	.	4r	.	4r	.	4r	.	4r	.
=41	=41	=41	=41	=41	=41	=41	=41	=41	=41	=41	=41	=41	=41	=41	=41	=41	=41	=41	=41
4G 4GG/	x 8_	.	4r	.	4r	.	2.gg\	.	4r	.	.	1G	.	1g	.	4r	.	2.ggg\	.
4G 4GG/	x _ 3	.	4g/	.	4g 4B/	.	.	.	4b\	tu	.	.	.	.	.	4g/	.	.	.
!	!	!	!	!	!	!	!	!	!LO:LB:g=original	!	!	!	!	!	!	!	!	!	!
4G 4GG/	x _ 4	.	4a/	.	4g 4c/	.	.	.	4cc\	so-	.	.	.	.	.	4a/	.	.	.
4G 4GG/	x _ 5	.	4b/	.	4g 4d/	.	4ff\	.	4dd\	-lus	.	.	.	.	.	4b/	.	4fff\	.
=42	=42	=42	=42	=42	=42	=42	=42	=42	=42	=42	=42	=42	=42	=42	=42	=42	=42	=42	=42
4C/	x x 3	.	8ee 8cc/	.	8g 8G/	.	8eeL 8cc'\	.	(4ee\	san-	.	8c/	.	8e/	.	8cc\	.	8eee|\L	.
.	.	.	8r	.	8r	.	(16aa\L	.	.	.	.	8r	.	8r	.	8r	.	(16aaa\L	.
.	.	.	.	.	.	.	16gg\JJ)	.	.	.	.	.	.	.	.	.	.	16ggg\JJ)	.
*	*	*	*	*	*	*	*	*	*	*	*	*	*	*	*	*	*	*custos:cc	*
!	!	!	!	!	!	!	!	!	!	!	!	!	!	!	!	!	!	!LO:LB:g=original	!
4GG/	x x 7	.	8dd 8b/	.	8f 8G/	.	8dd\L	.	4dd\)	.	.	8G/	.	8g/	.	8b\	.	8ddd|\L	.
.	.	.	8r	.	8r	.	(16ff\L	.	.	.	.	8r	.	8r	.	8r	.	16fff\L	.
.	.	.	.	.	.	.	16ee\JJ)	.	.	.	.	.	.	.	.	.	.	16eee\JJ	.
16C\LL	x x 3	.	16cc/LL	.	16eLL 16G/	.	16cc/LL	.	4cc\	-ctus	.	8c/	.	8e/	.	16cc/LL	.	16ccc\LL	.
16G\	.	.	16g/	.	16g/	.	16g/	.	.	.	.	.	.	.	.	16g/	.	16gg\	.
!LO:TX:a:t=tasto Solo	!	!	!	!	!	!	!	!	!	!	!	!	!	!	!	!	!	!	!
16F#X\	.	.	16f#X/	.	16f#X/	.	16f#X/	.	.	.	.	8r	.	8r	.	16f#X/	.	16ff#X\	.
16G\JJ	.	.	16g/JJ	.	16g/JJ	.	16g/JJ	.	.	.	.	.	.	.	.	16g/JJ	.	16gg\JJ	.
16AA/LL	.	.	16a/LL	.	16a/LL	.	16a/LL	.	4r	.	.	4r	.	4r	.	16a/LL	.	16aa\LL	.
16BB/	.	.	16b/	.	16b/	.	16b/	.	.	.	.	.	.	.	.	16b/	.	16bb\	.
16C/	.	.	16cc/	.	16cc/	.	16cc/	.	.	.	.	.	.	.	.	16cc/	.	16ccc\	.
16D/JJ	.	.	16dd/JJ	.	16dd/JJ	.	16dd/JJ	.	.	.	.	.	.	.	.	16dd/JJ	.	16ddd\JJ	.
!	!	!	!	!	!	!	!	!	!	!	!	!	!	!LO:LB:g=original	!	!	!	!	!
=43	=43	=43	=43	=43	=43	=43	=43	=43	=43	=43	=43	=43	=43	=43	=43	=43	=43	=43	=43
*	*	*	*tremolo	*	*	*	*tremolo	*	*	*	*	*	*	*	*	*	*	*	*
!LO:TX:a:t=uniso&colon;	!	!	!	!	!LO:TX:t=P:problem=mixed beam	!	!	!	!	!	!	!	!	!	!	!	!	!	!
8E/L	.	.	16ee/LL	.	16ee\LL	.	16ee\LL	.	(8cc\L	quo-	.	2c/	.	2c/	.	8ee\L	.	8eee\L	.
.	.	.	16ee/	.	16ee\	.	16ee\	.	.	.	.	.	.	.	.	.	.	.	.
8GG/	.	.	16g/	.	16G/	.	16g\	.	8b\J)	.	.	.	.	.	.	8g\	.	8gg\	.
.	.	.	16g/	.	16G/JJ	.	16g\	.	.	.	.	.	.	.	.	.	.	.	.
*	*	*	*	*	*tremolo	*	*	*	*	*	*	*	*	*	*	*	*	*	*
8C/	.	.	16cc/	.	16c/LL	.	16cc\	.	(8cc\L	-ni-	.	.	.	.	.	8cc\	.	8ccc\	.
.	.	.	16cc/	.	16c/	.	16cc\	.	.	.	.	.	.	.	.	.	.	.	.
8E/J	.	.	16ee/	.	16e/	.	16ee\	.	8ee\J)	.	.	.	.	.	.	8ee\J	.	8eee\J	.
.	.	.	16ee/JJ	.	16e/JJ	.	16ee\JJ	.	.	.	.	.	.	.	.	.	.	.	.
!LO:TX:t=P:problem=belka szesnastkowa poprawiona na ósemkową	!	!	!	!	!	!	!	!	!	!	!	!	!	!	!	!	!	!	!
8D/L	.	.	16dd/LL	.	16d/LL	.	16dd\LL	.	(8dd\L	-am	.	4c/	.	4c/	.	8dd\L	.	8ddd\L	.
.	.	.	16dd/	.	16d/	.	16dd\	.	.	.	.	.	.	.	.	.	.	.	.
8C/	.	.	16cc/	.	16c/	.	16cc\	.	8cc\J)	.	.	.	.	.	.	8cc\	.	8ccc\	.
.	.	.	16cc/	.	16c/	.	16cc\	.	.	.	.	.	.	.	.	.	.	.	.
8BB/	.	.	16b/	.	16B/	.	16b\	.	8b\L	tu	.	4c/	.	4c/	.	8b\	.	8bb\	.
.	.	.	16b/	.	16B/	.	16b\	.	.	.	.	.	.	.	.	.	.	.	.
8C/J	.	.	16cc/	.	16c/	.	16cc\	.	8cc\J	.	.	.	.	.	.	8cc\J	.	8ccc\J	.
.	.	.	16cc/JJ	.	16c/JJ	.	16cc\JJ	.	.	.	.	.	.	.	.	.	.	.	.
=44	=44	=44	=44	=44	=44	=44	=44	=44	=44	=44	=44	=44	=44	=44	=44	=44	=44	=44	=44
*	*	*	*	*	*	*	*	*	*	*	*	*	*	*2\right	*	*2\right	*	*	*
2F#X\	x x 7-_	.	16cc/LL	.	16cc 16e-X/LL	.	16ccc\LL	.	2cc\	so-	.	2c/	.	2cc\	.	2ee-X\	.	2ccc\	.
.	.	.	16cc/	.	16cc 16e-X/	.	16ccc\	.	.	.	.	.	.	.	.	.	.	.	.
.	.	.	16cc/	.	16cc 16e-X/	.	16ccc\	.	.	.	.	.	.	.	.	.	.	.	.
.	.	.	16cc/	.	16cc 16e-X/	.	16ccc\	.	.	.	.	.	.	.	.	.	.	.	.
.	.	.	16cc/	.	16cc 16e-X/	.	16ccc\	.	.	.	.	.	.	.	.	.	.	.	.
.	.	.	16cc/	.	16cc 16e-X/	.	16ccc\	.	.	.	.	.	.	.	.	.	.	.	.
.	.	.	16cc/	.	16cc 16e-X/	.	16ccc\	.	.	.	.	.	.	.	.	.	.	.	.
.	.	.	16cc/JJ	.	16cc 16e-X/JJ	.	16ccc\JJ	.	.	.	.	.	.	.	.	.	.	.	.
2A\	.	.	16cc/LL	.	16cc 16e-/LL	.	16ff#X 16a\LL	.	4ff#X\	-lus	.	2c/	.	2cc\	.	2ee-\	.	2ff#X\	.
.	.	.	16cc/	.	16cc 16e-/	.	16ff#X 16a\	.	.	.	.	.	.	.	.	.	.	.	.
.	.	.	16cc/	.	16cc 16e-/	.	16ff#X 16a\	.	.	.	.	.	.	.	.	.	.	.	.
.	.	.	16cc/	.	16cc 16e-/	.	16ff#X 16a\	.	.	.	.	.	.	.	.	.	.	.	.
.	.	.	16cc/	.	16cc 16e-/	.	16ff#X 16a\	.	4ff#\	al-	.	.	.	.	.	.	.	.	.
.	.	.	16cc/	.	16cc 16e-/	.	16ff#X 16a\	.	.	.	.	.	.	.	.	.	.	.	.
.	.	.	16cc/	.	16cc 16e-/	.	16ff#X 16a\	.	.	.	.	.	.	.	.	.	.	.	.
.	.	.	16cc/JJ	.	16cc 16e-/JJ	.	16ff#X 16a\JJ	.	.	.	.	.	.	.	.	.	.	.	.
*	*	*	*Xtremolo	*	*Xtremolo	*	*Xtremolo	*	*	*	*	*	*	*	*	*	*	*	*
!	!	!	!LO:LB:g=original	!	!	!	!	!	!	!	!	!	!	!	!	!	!	!	!
=45	=45	=45	=45	=45	=45	=45	=45	=45	=45	=45	=45	=45	=45	=45||:	=45	=45	=45	=45	=45
4G\	x 6n_ 4_	.	4ee 4g/	.	4cc 4g/	.	4gg\	.	4gg\	-tis-	.	4G/	.	4g/	.	4een\	.	4gg\	.
4G\	.	.	8eeL 8cc/	.	8.ccL 8.g/	.	8eeL 8cc\	.	8ee\	-si-	.	8G/L	.	4g/	.	8cc\L	.	8ee\L	.
.	.	.	8eeJ 8cc/	.	.	.	8eeJ 8cc\	.	8ee\	-mus	.	8G/J	.	.	.	8cc\J	.	8ee\J	.
.	.	.	.	.	16ccJk 16g/	.	.	.	.	.	.	.	.	.	.	.	.	.	.
!	!	!	!	!	!	!	!	!	!	!	!	!	!	!	!	!LO:LB:g=original	!	!	!
4G\	x 5_ 4_	.	4cc/	.	4cc 4d/	.	4dd\	.	4dd\	Je-	.	4G/	.	4g/	.	4cc\	.	4dd\	.
4G\	.	.	4cc/	.	4cc 4d/	.	4dd\	.	4dd\	-su	.	4G/	.	4g/	.	4cc\	.	4dd\	.
=46	=46	=46	=46	=46	=46	=46	=46	=46	=46	=46	=46	=46	=46	=46:||	=46	=46	=46	=46	=46
*	*	*	*tremolo	*	*tremolo	*	*tremolo	*	*	*	*	*	*	*	*	*	*	*	*
!	!	!	!	!	!	!	!	!	!	!	!	!	!	!LO:TX:t=P:problem=t. 46 zapisany repetycją	!	!	!	!	!
1G	x x 7	.	16gg 16b/LL	.	16dd 16fLL	.	16gg 16b\LL	.	1gg	Chri-	.	1G	.	4g/yy	.	1b	.	1gg	.
.	.	.	16gg 16b/	.	16dd 16f	.	16gg 16b\	.	.	.	.	.	.	.	.	.	.	.	.
.	.	.	16gg 16b/	.	16dd 16f	.	16gg 16b\	.	.	.	.	.	.	.	.	.	.	.	.
.	.	.	16gg 16b/	.	16dd 16f	.	16gg 16b\	.	.	.	.	.	.	.	.	.	.	.	.
.	.	.	16gg 16b/	.	16dd 16f	.	16gg 16b\	.	.	.	.	.	.	4g/yy	.	.	.	.	.
.	.	.	16gg 16b/	.	16dd 16f	.	16gg 16b\	.	.	.	.	.	.	.	.	.	.	.	.
.	.	.	16gg 16b/	.	16dd 16f	.	16gg 16b\	.	.	.	.	.	.	.	.	.	.	.	.
.	.	.	16gg 16b/JJ	.	16dd 16f	.	16gg 16b\JJ	.	.	.	.	.	.	.	.	.	.	.	.
.	.	.	16gg 16b/LL	.	16dd 16f	.	16gg 16b\LL	.	.	.	.	.	.	4g/yy	.	.	.	.	.
.	.	.	16gg 16b/	.	16dd 16f	.	16gg 16b\	.	.	.	.	.	.	.	.	.	.	.	.
.	.	.	16gg 16b/	.	16dd 16f	.	16gg 16b\	.	.	.	.	.	.	.	.	.	.	.	.
.	.	.	16gg 16b/	.	16dd 16f	.	16gg 16b\	.	.	.	.	.	.	.	.	.	.	.	.
.	.	.	16gg 16b/	.	16dd 16f	.	16gg 16b\	.	.	.	.	.	.	4g/yy	.	.	.	.	.
.	.	.	16gg 16b/	.	16dd 16f	.	16gg 16b\	.	.	.	.	.	.	.	.	.	.	.	.
.	.	.	16gg 16b/	.	16dd 16f	.	16gg 16b\	.	.	.	.	.	.	.	.	.	.	.	.
.	.	.	16gg 16b/JJ	.	16dd 16fJJ	.	16gg 16b\JJ	.	.	.	.	.	.	.	.	.	.	.	.
*	*	*	*Xtremolo	*	*Xtremolo	*	*Xtremolo	*	*	*	*	*	*	*	*	*	*	*	*
=47	=47	=47	=47	=47	=47	=47	=47	=47	=47	=47	=47	=47	=47	=47	=47	=47	=47	=47	=47
!	!	!	!	!	!	!	!	!LO:DY:b:rj	!	!	!	!	!	!	!	!	!	!	!
4C/	x x 3	.	4ee 4cc/	.	4g 4G/	.	4cc\	ff	4cc\	-ste	.	4c/	.	4c/	.	4cc\	.	4cc\	.
4B-X\	x 4 2	.	4ee 4cc/	.	4g/	.	4ee 4cc\	.	4ee\	cum	.	4c/	.	4cc\	.	4cc\	.	4ee\	.
4A\	x 6 3	.	4cc/	.	4f/	.	4ff 4cc\	.	4ff\	san-	.	4c/	.	4cc\	.	4cc\	.	4ff\	.
4F\	x 5 3	.	4ff 4a/	.	4ff 4a\	.	4aa 4cc\	.	4aa\	-cto	.	4c/	.	4cc\	.	4cc\	.	4aa\	.
=48	=48	=48	=48	=48	=48	=48	=48	=48	=48	=48	=48	=48	=48	=48	=48	=48	=48	=48	=48
2C/	x 5_ 3_	.	2gg 2g/	.	2cc 2e/	.	4.gg\	.	4.gg\	spi-	.	2c/	.	2cc\	.	4.ee\	.	4.gg\	.
.	.	.	.	.	.	.	8ee\	.	8ee\	-ri-	.	.	.	.	.	8cc\	.	8ee\	.
!LO:TX:t=Solo	!	!	!	!	!	!	!	!	!	!	!	!	!	!	!	!	!	!	!
4C/	x x x	.	4ee 4cc/	.	4g/	.	4cc 4e/	.	4cc\	-to	.	4c/	.	4cc\	.	4cc\	.	4cc\	.
4C/	.	.	4cc/	.	4c/	.	4cc/	.	4cc\	in	.	4c/	.	4cc\	.	4cc\	.	4cc\	.
=49	=49	=49	=49	=49	=49	=49	=49	=49	=49	=49	=49	=49	=49	=49	=49	=49	=49	=49	=49
4C/	.	.	4ee 4cc/	.	4g 4G/	.	4cc 4e/	.	4cc\	glo-	.	4c/	.	4cc\	.	4cc\	.	4cc\	.
4B-X\	x 4 2	.	4ee 4cc/	.	4g/	.	4ee 4cc\	.	8ee\	-ri-	.	4c/	.	4cc\	.	4cc\	.	4ee\	.
.	.	.	.	.	.	.	.	.	8ee\	-a	.	.	.	.	.	.	.	.	.
4A\	x 6 3	.	4cc/	.	4f/	.	4ff 4cc\	.	4ff\	De-	.	4c/	.	4cc\	.	4cc\	.	4ff\	.
4F\	x 5 3	.	4ff 4a/	.	4ff 4a\	.	4aa 4cc\	.	4aa\	-i	.	4c/	.	4cc\	.	4cc\	.	4aa\	.
!	!	!	!	!	!LO:LB:g=original	!	!LO:LB:g=original	!	!	!	!	!LO:LB:g=original	!	!	!	!	!	!	!
=50	=50	=50	=50	=50	=50	=50	=50	=50	=50	=50	=50	=50	=50	=50	=50	=50	=50	=50	=50
1C	x 5_ 3_	.	2gg 2g/	.	2cc 2e\	.	2gg\	.	2gg\	Pa-	.	2c/	.	2cc\	.	2ee\	.	2gg\	.
.	.	.	2gg 2g/	.	2cc 2e\	.	2ee\	.	2ee\	-tris	.	4c/	.	2cc\	.	2cc\	.	2ee\	.
.	.	.	.	.	.	.	.	.	.	.	.	4r	.	.	.	.	.	.	.
=51	=51	=51	=51	=51	=51	=51	=51	=51	=51	=51	=51	=51	=51	=51	=51	=51	=51	=51	=51
*	*	*	*tremolo	*	*tremolo	*	*tremolo	*	*	*	*	*	*	*	*	*	*	*	*
1C	.	.	16gg\LL	.	16cc\LL	.	16ccc 16eeLL	.	2cc\	a-	.	1c	.	2e/	.	1ee	.	1ccc	.
.	.	.	16gg\	.	16cc\	.	16ccc 16ee	.	.	.	.	.	.	.	.	.	.	.	.
.	.	.	16gg\	.	16cc\	.	16ccc 16ee	.	.	.	.	.	.	.	.	.	.	.	.
.	.	.	16gg\	.	16cc\	.	16ccc 16ee	.	.	.	.	.	.	.	.	.	.	.	.
.	.	.	16gg\	.	16cc\	.	16ccc 16ee	.	.	.	.	.	.	.	.	.	.	.	.
.	.	.	16gg\	.	16cc\	.	16ccc 16ee	.	.	.	.	.	.	.	.	.	.	.	.
.	.	.	16gg\	.	16cc\	.	16ccc 16ee	.	.	.	.	.	.	.	.	.	.	.	.
.	.	.	16gg\JJ	.	16cc\JJ	.	16ccc 16ee	.	.	.	.	.	.	.	.	.	.	.	.
.	.	.	16ccc 16gg\LL	.	16gg 16cc\LL	.	16ccc 16ee	.	2cc\	-men	.	.	.	2e/	.	.	.	.	.
.	.	.	16ccc 16gg\	.	16gg 16cc\	.	16ccc 16ee	.	.	.	.	.	.	.	.	.	.	.	.
.	.	.	16ccc 16gg\	.	16gg 16cc\	.	16ccc 16ee	.	.	.	.	.	.	.	.	.	.	.	.
.	.	.	16ccc 16gg\	.	16gg 16cc\	.	16ccc 16ee	.	.	.	.	.	.	.	.	.	.	.	.
.	.	.	16ccc 16gg\	.	16gg 16cc\	.	16ccc 16ee	.	.	.	.	.	.	.	.	.	.	.	.
.	.	.	16ccc 16gg\	.	16gg 16cc\	.	16ccc 16ee	.	.	.	.	.	.	.	.	.	.	.	.
.	.	.	16ccc 16gg\	.	16gg 16cc\	.	16ccc 16ee	.	.	.	.	.	.	.	.	.	.	.	.
.	.	.	16ccc 16gg\JJ	.	16gg 16cc\JJ	.	16ccc 16eeJJ	.	.	.	.	.	.	.	.	.	.	.	.
!	!	!	!	!	!	!	!	!	!LO:LB:g=original	!	!	!	!	!	!	!	!	!	!
=52	=52	=52	=52	=52	=52	=52	=52	=52	=52	=52	=52	=52	=52	=52	=52	=52	=52	=52	=52
*	*	*	*	*	*	*	*rep	*	*	*	*	*	*	*	*	*	*	*	*
1AA	x 5 3	.	16aa 16ee\LL	.	16aa 16ccLL	.	16ccc 16eeLL	.	2cc\	A-	.	1c	.	1e	.	1ee	.	1ccc	.
.	.	.	16aa 16ee\	.	16aa 16cc	.	16ccc 16ee	.	.	.	.	.	.	.	.	.	.	.	.
.	.	.	16aa 16ee\	.	16aa 16cc	.	16ccc 16ee	.	.	.	.	.	.	.	.	.	.	.	.
.	.	.	16aa 16ee\	.	16aa 16cc	.	16ccc 16ee	.	.	.	.	.	.	.	.	.	.	.	.
.	.	.	16aa 16ee\	.	16aa 16cc	.	16ccc 16ee	.	.	.	.	.	.	.	.	.	.	.	.
.	.	.	16aa 16ee\	.	16aa 16cc	.	16ccc 16ee	.	.	.	.	.	.	.	.	.	.	.	.
.	.	.	16aa 16ee\	.	16aa 16cc	.	16ccc 16ee	.	.	.	.	.	.	.	.	.	.	.	.
.	.	.	16aa 16ee\JJ	.	16aa 16cc	.	16ccc 16ee	.	.	.	.	.	.	.	.	.	.	.	.
.	.	.	16aa 16ee\LL	.	16aa 16cc	.	16ccc 16ee	.	2cc\	-men	.	.	.	.	.	.	.	.	.
.	.	.	16aa 16ee\	.	16aa 16cc	.	16ccc 16ee	.	.	.	.	.	.	.	.	.	.	.	.
.	.	.	16aa 16ee\	.	16aa 16cc	.	16ccc 16ee	.	.	.	.	.	.	.	.	.	.	.	.
.	.	.	16aa 16ee\	.	16aa 16cc	.	16ccc 16ee	.	.	.	.	.	.	.	.	.	.	.	.
.	.	.	16aa 16ee\	.	16aa 16cc	.	16ccc 16ee	.	.	.	.	.	.	.	.	.	.	.	.
.	.	.	16aa 16ee\	.	16aa 16cc	.	16ccc 16ee	.	.	.	.	.	.	.	.	.	.	.	.
.	.	.	16aa 16ee\	.	16aa 16cc	.	16ccc 16ee	.	.	.	.	.	.	.	.	.	.	.	.
.	.	.	16aa 16ee\JJ	.	16aa 16ccJJ	.	16ccc 16eeJJ	.	.	.	.	.	.	.	.	.	.	.	.
*	*	*	*	*	*	*	*Xrep	*	*	*	*	*	*	*	*	*	*	*	*
=53	=53	=53	=53	=53	=53	=53	=53	=53	=53	=53	=53	=53	=53	=53	=53	=53	=53	=53	=53
2F 2FF/	x 6 5	.	16ff\LL	.	16ff\LL	.	16ccc 16dd\LL	.	(2cc\	a-	.	2r	.	2r	.	2ff\	.	2ccc\	.
.	.	.	16ff\	.	16ff\	.	16ccc 16dd\	.	.	.	.	.	.	.	.	.	.	.	.
.	.	.	16ff\	.	16ff\	.	16ccc 16dd\	.	.	.	.	.	.	.	.	.	.	.	.
.	.	.	16ff\	.	16ff\	.	16ccc 16dd\	.	.	.	.	.	.	.	.	.	.	.	.
.	.	.	16ff\	.	16ff\	.	16ccc 16dd\	.	.	.	.	.	.	.	.	.	.	.	.
.	.	.	16ff\	.	16ff\	.	16ccc 16dd\	.	.	.	.	.	.	.	.	.	.	.	.
.	.	.	16ff\	.	16ff\	.	16ccc 16dd\	.	.	.	.	.	.	.	.	.	.	.	.
.	.	.	16ff\JJ	.	16ff\JJ	.	16ccc 16dd\JJ	.	.	.	.	.	.	.	.	.	.	.	.
2G 2GG/	x x 7	.	16bb 16gg\LL	.	16gg\LL	.	16bb 16dd\LL	.	2b\)	.	.	2G/	.	2g/	.	2ff\	.	2bb\	.
.	.	.	16bb 16gg\	.	16gg\	.	16bb 16dd\	.	.	.	.	.	.	.	.	.	.	.	.
.	.	.	16bb 16gg\	.	16gg\	.	16bb 16dd\	.	.	.	.	.	.	.	.	.	.	.	.
.	.	.	16bb 16gg\	.	16gg\	.	16bb 16dd\	.	.	.	.	.	.	.	.	.	.	.	.
.	.	.	16bb 16gg\	.	16gg\	.	16bb 16dd\	.	.	.	.	.	.	.	.	.	.	.	.
.	.	.	16bb 16gg\	.	16gg\	.	16bb 16dd\	.	.	.	.	.	.	.	.	.	.	.	.
.	.	.	16bb 16gg\	.	16gg\	.	16bb 16dd\	.	.	.	.	.	.	.	.	.	.	.	.
.	.	.	16bb 16gg\JJ	.	16gg\JJ	.	16bb 16dd\JJ	.	.	.	.	.	.	.	.	.	.	.	.
*	*	*	*Xtremolo	*	*Xtremolo	*	*Xtremolo	*	*	*	*	*	*	*	*	*	*	*	*
=54	=54	=54	=54	=54	=54	=54	=54	=54	=54	=54	=54	=54	=54	=54	=54	=54	=54	=54	=54
4C/	x x 3	.	8ee\L	.	8ggL 8cc\	.	8cccL 8ee\	.	2cc\	-men	.	8c/L	.	8c/L	.	8ee\L	.	4ccc\	.
.	.	.	16cc\L	.	16cc\L	.	16cc\L	.	.	.	.	16c/L	.	16c/L	.	16cc\L	.	.	.
.	.	.	16cc\JJ	.	16cc\JJ	.	16cc\JJ	.	.	.	.	16c/JJ	.	16c/JJ	.	16cc\JJ	.	.	.
8C/L	.	.	4ryy	.	8cc\L	.	8cc\L	.	.	.	.	8c/L	.	8c/L	.	8cc\L	.	4r	.
8C/J	.	.	.	.	8cc\J	.	8cc\J	.	.	.	.	8c/J	.	8c/J	.	8cc\J	.	.	.
*custos:A	*	*	*	*	*	*	*	*	*	*	*	*	*	*	*	*	*	*	*
!LO:LB:g=original	!	!	!	!	!	!	!	!	!	!	!	!	!	!	!	!	!	!	!
!LO:TX:a:t=uniso&colon;	!	!	!	!	!	!	!	!	!	!	!	!	!	!	!	!	!	!	!
8E\L	.	.	8ee\L	.	8ee\L	.	8ee\L	.	2r	.	.	8e/L	.	8e/L	.	8ee\L	.	2r	.
8C\	.	.	8cc\	.	8cc\	.	8cc\	.	.	.	.	8c/	.	8c/	.	8cc\	.	.	.
8E\	.	.	8ee\	.	8ee\	.	8ee\	.	.	.	.	8e/	.	8e/	.	8ee\	.	.	.
8G\J	.	.	8gg\J	.	8gg\J	.	8gg\J	.	.	.	.	8g/J	.	8g/J	.	8gg\J	.	.	.
!	!	!	!	!	!	!	!	!	!	!	!	!	!	!	!	!	!	!LO:LB:g=original	!
=55	=55	=55	=55	=55	=55	=55	=55	=55	=55	=55	=55	=55	=55	=55	=55	=55	=55	=55	=55
*	*	*	*tremolo	*	*tremolo	*	*tremolo	*	*	*	*	*	*	*	*	*	*	*	*
1C	x 5 3	.	16gg\LL	.	16gg 16ccLL	.	16ccc 16eeLL	.	2cc\	A-	.	1c	.	1e	.	1ee	.	1ccc	.
.	.	.	16gg\	.	16gg 16cc	.	16ccc 16ee	.	.	.	.	.	.	.	.	.	.	.	.
.	.	.	16gg\	.	16gg 16cc	.	16ccc 16ee	.	.	.	.	.	.	.	.	.	.	.	.
.	.	.	16gg\	.	16gg 16cc	.	16ccc 16ee	.	.	.	.	.	.	.	.	.	.	.	.
.	.	.	16gg\	.	16gg 16cc	.	16ccc 16ee	.	.	.	.	.	.	.	.	.	.	.	.
.	.	.	16gg\	.	16gg 16cc	.	16ccc 16ee	.	.	.	.	.	.	.	.	.	.	.	.
.	.	.	16gg\	.	16gg 16cc	.	16ccc 16ee	.	.	.	.	.	.	.	.	.	.	.	.
.	.	.	16gg\JJ	.	16gg 16cc	.	16ccc 16ee	.	.	.	.	.	.	.	.	.	.	.	.
.	.	.	16ccc 16gg\LL	.	16gg 16cc	.	16ccc 16ee	.	2cc\	-men	.	.	.	.	.	.	.	.	.
.	.	.	16ccc 16gg\	.	16gg 16cc	.	16ccc 16ee	.	.	.	.	.	.	.	.	.	.	.	.
.	.	.	16ccc 16gg\	.	16gg 16cc	.	16ccc 16ee	.	.	.	.	.	.	.	.	.	.	.	.
.	.	.	16ccc 16gg\	.	16gg 16cc	.	16ccc 16ee	.	.	.	.	.	.	.	.	.	.	.	.
.	.	.	16ccc 16gg\	.	16gg 16cc	.	16ccc 16ee	.	.	.	.	.	.	.	.	.	.	.	.
.	.	.	16ccc 16gg\	.	16gg 16cc	.	16ccc 16ee	.	.	.	.	.	.	.	.	.	.	.	.
.	.	.	16ccc 16gg\	.	16gg 16cc	.	16ccc 16ee	.	.	.	.	.	.	.	.	.	.	.	.
.	.	.	16ccc 16gg\JJ	.	16gg 16ccJJ	.	16ccc 16eeJJ	.	.	.	.	.	.	.	.	.	.	.	.
=56	=56	=56	=56	=56	=56	=56	=56	=56	=56	=56	=56	=56	=56	=56	=56	=56	=56	=56	=56
*	*	*	*	*	*	*	*rep	*	*	*ij	*	*i	*	*	*	*	*	*rep	*
1AA	x 5 3	.	16aa 16ee\LL	.	16aa 16ccLL	.	16ccc 16eeLL	.	2cc\	A-	.	2c/	.	1e	.	1ee	.	1ccc	.
.	.	.	16aa 16ee\	.	16aa 16cc	.	16ccc 16ee	.	.	.	.	.	.	.	.	.	.	.	.
.	.	.	16aa 16ee\	.	16aa 16cc	.	16ccc 16ee	.	.	.	.	.	.	.	.	.	.	.	.
.	.	.	16aa 16ee\	.	16aa 16cc	.	16ccc 16ee	.	.	.	.	.	.	.	.	.	.	.	.
.	.	.	16aa 16ee\	.	16aa 16cc	.	16ccc 16ee	.	.	.	.	.	.	.	.	.	.	.	.
.	.	.	16aa 16ee\	.	16aa 16cc	.	16ccc 16ee	.	.	.	.	.	.	.	.	.	.	.	.
.	.	.	16aa 16ee\	.	16aa 16cc	.	16ccc 16ee	.	.	.	.	.	.	.	.	.	.	.	.
.	.	.	16aa 16ee\JJ	.	16aa 16cc	.	16ccc 16ee	.	.	.	.	.	.	.	.	.	.	.	.
.	.	.	16aa 16ee\LL	.	16aa 16cc	.	16ccc 16ee	.	2cc\	-men	.	2c/	.	.	.	.	.	.	.
*	*	*	*	*	*	*	*	*	*	*Xij	*	*	*	*	*	*	*	*	*
.	.	.	16aa 16ee\	.	16aa 16cc	.	16ccc 16ee	.	.	.	.	.	.	.	.	.	.	.	.
.	.	.	16aa 16ee\	.	16aa 16cc	.	16ccc 16ee	.	.	.	.	.	.	.	.	.	.	.	.
.	.	.	16aa 16ee\	.	16aa 16cc	.	16ccc 16ee	.	.	.	.	.	.	.	.	.	.	.	.
.	.	.	16aa 16ee\	.	16aa 16cc	.	16ccc 16ee	.	.	.	.	.	.	.	.	.	.	.	.
.	.	.	16aa 16ee\	.	16aa 16cc	.	16ccc 16ee	.	.	.	.	.	.	.	.	.	.	.	.
.	.	.	16aa 16ee\	.	16aa 16cc	.	16ccc 16ee	.	.	.	.	.	.	.	.	.	.	.	.
.	.	.	16aa 16ee\JJ	.	16aa 16ccJJ	.	16ccc 16eeJJ	.	.	.	.	.	.	.	.	.	.	.	.
*	*	*	*	*	*	*	*Xrep	*	*	*	*	*	*	*	*	*	*	*Xrep	*
=57	=57	=57	=57	=57	=57	=57	=57	=57	=57	=57	=57	=57	=57	=57	=57	=57	=57	=57	=57
1G 1GG	x 6 4	.	16ee 16cc/LL	.	16g 16GLL	.	16ee 16ccLL	.	(1ee	a-	.	1G	.	1g	.	1gg	.	1eee	.
.	.	.	16ee 16cc/	.	16g 16G	.	16ee 16cc	.	.	.	.	.	.	.	.	.	.	.	.
.	.	.	16ee 16cc/	.	16g 16G	.	16ee 16cc	.	.	.	.	.	.	.	.	.	.	.	.
.	.	.	16ee 16cc/	.	16g 16G	.	16ee 16cc	.	.	.	.	.	.	.	.	.	.	.	.
.	.	.	16ee 16cc/	.	16g 16G	.	16ee 16cc	.	.	.	.	.	.	.	.	.	.	.	.
.	.	.	16ee 16cc/	.	16g 16G	.	16ee 16cc	.	.	.	.	.	.	.	.	.	.	.	.
.	.	.	16ee 16cc/	.	16g 16G	.	16ee 16cc	.	.	.	.	.	.	.	.	.	.	.	.
.	.	.	16ee 16cc/JJ	.	16g 16G	.	16ee 16cc	.	.	.	.	.	.	.	.	.	.	.	.
.	.	.	16ee 16cc/LL	.	16g 16G	.	16ee 16cc	.	.	.	.	.	.	.	.	.	.	.	.
.	.	.	16ee 16cc/	.	16g 16G	.	16ee 16cc	.	.	.	.	.	.	.	.	.	.	.	.
.	.	.	16ee 16cc/	.	16g 16G	.	16ee 16cc	.	.	.	.	.	.	.	.	.	.	.	.
.	.	.	16ee 16cc/	.	16g 16G	.	16ee 16cc	.	.	.	.	.	.	.	.	.	.	.	.
.	.	.	16ee 16cc/	.	16g 16G	.	16ee 16cc	.	.	.	.	.	.	.	.	.	.	.	.
.	.	.	16ee 16cc/	.	16g 16G	.	16ee 16cc	.	.	.	.	.	.	.	.	.	.	.	.
.	.	.	16ee 16cc/	.	16g 16G	.	16ee 16cc	.	.	.	.	.	.	.	.	.	.	.	.
.	.	.	16ee 16cc/JJ	.	16g 16GJJ	.	16ee 16ccJJ	.	.	.	.	.	.	.	.	.	.	.	.
!	!	!	!	!	!	!	!	!	!	!	!	!	!	!LO:LB:g=original	!	!	!	!	!
=58	=58	=58	=58	=58	=58	=58	=58	=58	=58	=58	=58	=58	=58	=58	=58	=58	=58	=58	=58
1G 1GG	x x 7	.	16gg 16g/LL	.	16b 16dLL	.	16dd 16fLL	.	1dd)	.	.	1G	.	1g	.	1ff	.	1ddd	.
.	.	.	16gg 16g/	.	16b 16d	.	16dd 16f	.	.	.	.	.	.	.	.	.	.	.	.
.	.	.	16gg 16g/	.	16b 16d	.	16dd 16f	.	.	.	.	.	.	.	.	.	.	.	.
.	.	.	16gg 16g/	.	16b 16d	.	16dd 16f	.	.	.	.	.	.	.	.	.	.	.	.
.	.	.	16gg 16g/	.	16b 16d	.	16dd 16f	.	.	.	.	.	.	.	.	.	.	.	.
.	.	.	16gg 16g/	.	16b 16d	.	16dd 16f	.	.	.	.	.	.	.	.	.	.	.	.
.	.	.	16gg 16g/	.	16b 16d	.	16dd 16f	.	.	.	.	.	.	.	.	.	.	.	.
.	.	.	16gg 16g/JJ	.	16b 16d	.	16dd 16f	.	.	.	.	.	.	.	.	.	.	.	.
.	.	.	16gg 16g/LL	.	16b 16d	.	16dd 16f	.	.	.	.	.	.	.	.	.	.	.	.
.	.	.	16gg 16g/	.	16b 16d	.	16dd 16f	.	.	.	.	.	.	.	.	.	.	.	.
.	.	.	16gg 16g/	.	16b 16d	.	16dd 16f	.	.	.	.	.	.	.	.	.	.	.	.
.	.	.	16gg 16g/	.	16b 16d	.	16dd 16f	.	.	.	.	.	.	.	.	.	.	.	.
.	.	.	16gg 16g/	.	16b 16d	.	16dd 16f	.	.	.	.	.	.	.	.	.	.	.	.
.	.	.	16gg 16g/	.	16b 16d	.	16dd 16f	.	.	.	.	.	.	.	.	.	.	.	.
.	.	.	16gg 16g/	.	16b 16d	.	16dd 16f	.	.	.	.	.	.	.	.	.	.	.	.
.	.	.	16gg 16g/JJ	.	16b 16dJJ	.	16dd 16fJJ	.	.	.	.	.	.	.	.	.	.	.	.
*	*	*	*Xtremolo	*	*Xtremolo	*	*Xtremolo	*	*	*	*	*	*	*	*	*	*	*	*
=59	=59	=59	=59	=59	=59	=59	=59	=59	=59	=59	=59	=59	=59	=59	=59	=59	=59	=59	=59
4C/	x 5_ 3_	.	4gg 4g/	.	4cc 4e/	.	4cc 4e/	.	4cc\	-men	.	4c/	.	4cc\	.	4cc\	.	4ccc\	.
8C/L	.	.	(16cc/LL	.	(16cc/LL	.	(16ccc\LL	.	4r	.	.	8c/L	.	8cc\L	.	16cc\LL	.	(16ccc\LL	.
.	.	.	16b/	.	16b/	.	16bb\	.	.	.	.	.	.	.	.	16b\	.	16bb\	.
8GG/J	.	.	16a/	.	16a/	.	16aa\	.	.	.	.	8G/J	.	8g\J	.	16a\	.	16aa\	.
.	.	.	16g/JJ)	.	16g/JJ)	.	16gg\JJ)	.	.	.	.	.	.	.	.	16g\JJ	.	16gg\JJ)	.
*	*	*	*rep	*	*	*	*	*	*	*	*	*rep	*	*	*	*rep	*	*rep	*
8C/L	.	.	(16cc/LL	.	(16cc/LL	.	(16ccc\LL	.	2r	.	.	8c/L	.	8cc\L	.	16cc\LL	.	(16ccc\LL	.
.	.	.	16b/	.	16b/	.	16bb\	.	.	.	.	.	.	.	.	16b\	.	16bb\	.
8GG/	.	.	16a/	.	16a/	.	16aa\	.	.	.	.	8G/J	.	8g\J	.	16a\	.	16aa\	.
.	.	.	16g/JJ)	.	16g/JJ)	.	16gg\JJ)	.	.	.	.	.	.	.	.	16g\JJ	.	16gg\JJ)	.
*	*	*	*Xrep	*	*	*	*	*	*	*	*	*Xrep	*	*	*	*Xrep	*	*Xrep	*
*	*	*	*rep	*	*rep	*	*	*	*	*	*	*rep	*	*	*	*rep	*	*rep	*
!	!	!	!	!	!LO:TX:t=P:problem=łuk pod znakiem repetycji	!	!	!	!	!	!	!	!	!	!	!	!	!	!
8C/	.	.	(16cc/LL	.	(16cc/LL	.	(16ccc\LL	.	.	.	.	8c/L	.	8cc\L	.	16cc\LL	.	(16ccc\LL	.
.	.	.	16b/	.	16b/	.	16bb\	.	.	.	.	.	.	.	.	16b\	.	16bb\	.
8GG/J	.	.	16a/	.	16a/	.	16aa\	.	.	.	.	8G/J	.	8g\J	.	16a\	.	16aa\	.
.	.	.	16g/JJ)	.	16g/JJ)	.	16gg\JJ)	.	.	.	.	.	.	.	.	16g\JJ	.	16gg\JJ)	.
*	*	*	*Xrep	*	*Xrep	*	*	*	*	*	*	*Xrep	*	*	*	*Xrep	*	*Xrep	*
*	*	*	*custos:cc	*	*	*	*	*	*	*	*	*	*	*	*	*	*	*	*
!	!	!	!LO:LB:g=original	!	!	!	!	!	!	!	!	!	!	!	!	!	!	!	!
=60	=60	=60	=60	=60	=60	=60	=60	=60	=60	=60	=60	=60	=60	=60	=60	=60	=60	=60	=60
*	*	*	*	*	*	*	*	*	*	*	*	*rep	*	*	*	*	*	*	*
!	!	!	!	!	!	!	!	!	!LO:TX:a:t=3	!	!	!	!	!	!	!	!	!	!
4C/	x x x	.	4cc/	.	4cc\	.	4ccc\	.	0r	.	.	4c/	.	4cc\	.	4cc\	.	4ccc\	.
8C/L	.	.	(16cc/LL	.	(16c/LL	.	(16cc/LL	.	.	.	.	8c/L	.	4r	.	16cc\LL	.	4r	.
.	.	.	16b/	.	16B/	.	16b/	.	.	.	.	.	.	.	.	16b\	.	.	.
8GG/J	.	.	16a/	.	16A/	.	16a/	.	.	.	.	8G/J	.	.	.	16a\	.	.	.
.	.	.	16g/JJ)	.	16G/JJ)	.	16g/JJ)	.	.	.	.	.	.	.	.	16g\JJ	.	.	.
*	*	*	*rep	*	*rep	*	*	*	*	*	*	*	*	*	*	*rep	*	*	*
8C/L	.	.	(16cc/LL	.	(16c/LL	.	(16cc/LL	.	.	.	.	8c/L	.	2r	.	16cc\LL	.	2r	.
.	.	.	16b/	.	16B/	.	16b/	.	.	.	.	.	.	.	.	16b\	.	.	.
8GG/	.	.	16a/	.	16A/	.	16a/	.	.	.	.	8G/J	.	.	.	16a\	.	.	.
.	.	.	16g/JJ)	.	16G/JJ)	.	16g/JJ)	.	.	.	.	.	.	.	.	16g\JJ	.	.	.
*	*	*	*Xrep	*	*Xrep	*	*	*	*	*	*	*	*	*	*	*Xrep	*	*	*
*	*	*	*rep	*	*rep	*	*	*	*	*	*	*	*	*	*	*rep	*	*	*
8C/	.	.	(16cc/LL	.	(16c/LL	.	(16cc/LL	.	.	.	.	8c/L	.	.	.	16cc\LL	.	.	.
.	.	.	16b/	.	16B/	.	16b/	.	.	.	.	.	.	.	.	16b\	.	.	.
8GG/J	.	.	16a/	.	16A/	.	16a/	.	.	.	.	8G/J	.	.	.	16a\	.	.	.
.	.	.	16g/JJ)	.	16G/JJ)	.	16g/JJ)	.	.	.	.	.	.	.	.	16g\JJ	.	.	.
*	*	*	*Xrep	*	*Xrep	*	*	*	*	*	*	*Xrep	*	*	*	*Xrep	*	*	*
!	!	!	!	!	!	!	!	!	!	!	!	!	!	!	!	!LO:LB:g=original	!	!	!
=61	=61	=61	=61	=61	=61	=61	=61	=61	=61	=61	=61	=61	=61	=61	=61	=61	=61	=61	=61
4C/	x 5_ 3_	.	4cc/	.	4c/	.	4cc\	.	.	.	.	4c/	.	2r	.	4cc\	.	2r	.
4r	.	.	4r	.	4r	.	4r	.	.	.	.	4r	.	.	.	4r	.	.	.
4C/	.	.	4gg 4g/	.	4cc 4e/	.	4ee 4cc\	.	.	.	.	4c/	.	4e/	.	4cc\	.	4eee\	.
4r	x x x	.	8r	.	8r	.	8r	.	.	.	.	8r	.	8r	.	8r	.	4r	.
.	.	.	8cc 8c/	.	8c/	.	8c/	.	.	.	.	8c/	.	8c/	.	8c/	.	.	.
=62	=62	=62	=62	=62	=62	=62	=62	=62	=62	=62	=62	=62	=62	=62	=62	=62	=62	=62	=62
2C;</	x x 8	.	2cc 2c/	.	2c/	.	2c/	.	1r	.	.	2c/	.	2c/	.	2c/	.	1r;	.
2r	.	.	2r	.	2r;	.	2r	.	.	.	.	2r	.	2r	.	2r;	.	.	.
==	==	==	==	==	==	==	==	==	==	==	==	==	==	==	==	==	==	==	==
*-	*-	*-	*-	*-	*-	*-	*-	*-	*-	*-	*-	*-	*-	*-	*-	*-	*-	*-	*-
!!!system-decoration: [g1][g2][g3][g4]g5
!!!RDF**kern: | = vertical stroke
!!!RDF**kern: > = above
!!!RDF**kern: < = below
!!!ENC: Katarzyna Serwa
!!!END: 2022-02-04
!!!ENC: Katarzyna Serwa
!!!END: 2020-10-08
!!!YEC: Copyright 2022 Narodowy Instytut Fryderyka Chopina (https://polishscores.org)
!!!YEM: License CC-BY-4.0 (https://creativecommons.org/licenses/by/4.0)
